!!!!SEGMENT: pl-kk--kk-i-394--001_anonim--missa-kyrie.krn
!!!cenid: 18xx:1392
!!!COM: Anonim
!!!COM-rismid: pe30004985
!!!CDT:
!!!CNT:
!!!OTL: Missa – Kyrie
!!!PDT: 1820
!!!AGN: Sacred; Mass
!!!SMS-siglum: PL-Kk
!!!SMS-shelfmark: Kk.I.394
!!!SMS-shelfwork: 001-001 M
!!!SMS-variant: Violino Primo.: PL-Kk Kk.I.394:33; Violino Secondo: PL-Kk Kk.I.394:47
!!!SMS-altvar: Violino Primo.: PL-Kk Kk.I.394:2; Violino Secondo: PL-Kk Kk.I.394:40
!!!NIFC-rismid: 1001140216
!!!URL-scan: http://repozytorium.nifc.pl/skany/pl-kk-nut--i-394
!!!ONB-nifc: UWAGA: części Mszy: 1. Kyrie, 2. Gloria, 3. Credo, 4. Sanctus, 5. Benedictus, 6. Agnus Dei
!!!ONB-nifc: UWAGA: na skanie 0032 początek partii Alto
**kern	**fba	**dynam	**kern	**dynam	**kern	**dynam	**kern	**dynam	**kern	**dynam	**kern	**kern	**text	**dynam	**kern	**text	**dynam	**kern	**text	**dynam	**kern	**text	**dynam	**kern	**kern	**kern	**kern	**dynam	**kern	**dynam	**kern	**dynam	**kern	**dynam	**kern	**dynam	**kern	**dynam
*part19	*	*part19	*part18	*part18	*part17	*part17	*part16	*part16	*part15	*part15	*part14	*part13	*part13	*part13	*part12	*part12	*part12	*part11	*part11	*part11	*part10	*part10	*part10	*part9	*part8	*part7	*part6	*part6	*part5	*part5	*part4	*part4	*part3	*part3	*part2	*part2	*part1	*part1
*	*	*	*group4	*	*group4	*	*group4	*	*group4	*	*	*group3	*	*	*group3	*	*	*group3	*	*	*group3	*	*	*	*group2	*group2	*group2	*	*group2	*	*group1	*	*group1	*	*group1	*	*group1	*
*staff19	*	*	*staff18	*	*staff17	*	*staff16	*	*staff15	*	*staff14	*staff13	*staff13	*	*staff12	*staff12	*	*staff11	*staff11	*	*staff10	*staff10	*	*staff9	*staff8	*staff7	*staff6	*	*staff5	*	*staff4	*	*staff3	*	*staff2	*	*staff1	*
*I"Organo.	*	*	*I"Basſo pro Violone	*	*I"Viole.	*	*I"Violino Secondo	*	*I"Violino Primo.	*	*I"Violino Solo.	*I"Basſo	*	*	*I"Tenor.	*	*	*I"Alto.	*	*	*I"Canto.	*	*	*I"Timpani	*I"Trombone di Basſo.	*I"Tromba	*I"Cornu Secondo	*	*I"Cornu Primo.	*	*I"Clarinetto Secondo in A.	*	*I"Clarinetto Primo. in A.	*	*I"Oboa.	*	*I"Flauto.	*
*I'org	*	*	*I'cb pro vlne	*	*I'vla	*	*I'vl II	*	*I'vl I	*	*I'vl solo	*I'B	*	*	*I'T	*	*	*I'A	*	*	*I'C	*	*	*I'timp	*I'trb di b	*I'tr	*I'cor II	*	*I'cor I	*	*I'cl II	*	*I'cl I	*	*I'ob	*	*I'fl	*
*clefF4	*	*	*clefF4	*	*clefC3	*	*clefG2	*	*clefG2	*	*clefG2	*clefF4	*	*	*clefC4	*	*	*clefG2	*	*	*clefG2	*	*	*clefF4	*clefF4	*clefG2	*clefG2	*	*clefG2	*	*clefG2	*	*clefG2	*	*clefG2	*	*clefG2	*
*	*	*	*ITrd0c0	*	*	*	*	*	*	*	*	*	*	*	*	*	*	*	*	*	*	*	*	*	*	*ITrd-2c-4	*ITrd5c8	*	*ITrd5c8	*	*ITrd2c3	*	*ITrd2c3	*	*	*	*	*
*k[f#c#g#d#]	*	*	*k[f#c#g#d#]	*	*k[f#c#g#d#]	*	*k[f#c#g#d#]	*	*k[f#c#g#d#]	*	*k[f#c#g#d#]	*k[f#c#g#d#]	*	*	*k[f#c#g#d#]	*	*	*k[f#c#g#d#]	*	*	*k[f#c#g#d#]	*	*	*k[f#c#g#d#]	*k[f#c#g#d#]	*k[f#c#g#d#]	*k[f#c#g#d#]	*	*k[f#c#g#d#]	*	*k[f#c#g#d#]	*	*k[f#c#g#d#]	*	*k[f#c#g#d#]	*	*k[f#c#g#d#]	*
*E:	*	*	*E:	*	*E:	*	*E:	*	*E:	*	*E:	*E:	*	*	*E:	*	*	*E:	*	*	*E:	*	*	*E:	*E:	*E:	*E:	*	*E:	*	*E:	*	*E:	*	*E:	*	*E:	*
*M4/4	*	*	*M4/4	*	*M4/4	*	*M4/4	*	*M4/4	*	*M4/4	*M4/4	*	*	*M4/4	*	*	*M4/4	*	*	*M4/4	*	*	*M4/4	*M4/4	*M4/4	*M4/4	*	*M4/4	*	*M4/4	*	*M4/4	*	*M4/4	*	*M4/4	*
*met(c)	*	*	*met(c)	*	*met(c)	*	*met(c)	*	*met(c)	*	*met(c)	*met(c)	*	*	*met(c)	*	*	*met(c)	*	*	*met(c)	*	*	*met(c)	*met(c)	*met(c)	*met(c)	*	*met(c)	*	*met(c)	*	*met(c)	*	*met(c)	*	*met(c)	*
=1	=1	=1	=1	=1	=1	=1	=1	=1	=1	=1	=1	=1	=1	=1	=1	=1	=1	=1	=1	=1	=1	=1	=1	=1	=1	=1	=1	=1	=1	=1	=1	=1	=1	=1	=1	=1	=1	=1
*all\right	*	*	*all\right	*	*all\right	*	*all\right	*	*all\right	*	*	*all\right	*	*	*all\right	*	*	*	*	*	*all\right	*	*below	*	*	*	*all\right	*	*all\right	*	*all\right	*	*all\right	*	*all\right	*	*all\right	*
*2\right	*	*	*2\right	*	*	*	*	*	*	*	*	*	*	*	*	*	*	*	*	*	*	*	*	*	*	*	*	*	*	*	*	*	*	*	*	*	*	*
!	!	!	!	!	!	!	!	!	!	!	!	!	!	!	!	!	!	!	!	!	!	!	!	!	!	!	!LO:TX:a:t=40.	!	!LO:TX:a:t=40.	!	!	!	!	!	!	!	!	!
!	!	!	!	!LO:HP:a	!	!	!	!	!LO:TX:a:t=1.	!	!	!LO:TX:a:t=11.	!	!	!LO:TX:a:t=11.	!	!	!LO:TX:a:t=11.	!	!	!LO:TX:a:t=11.	!	!	!	!	!	!LO:TX:b:t=Andante	!	!LO:TX:b:t=Andante.	!	!LO:TX:a:t=40.	!	!LO:TX:a:t=40.	!	!LO:TX:a:t=40.	!	!LO:TX:a:t=40.	!
!LO:TX:a:t=Andante mode&colon;	!	!LO:DY:rj	!LO:TX:a:t=Andante.	!LO:DY:rj	!LO:TX:a:t=Andante.	!	!LO:TX:a:t=Andante mode&colon;	!LO:DY:rj	!LO:TX:a:t=Andante moderato.	!	!LO:TX:a:t=partia tylko w części "Benedictus"	!LO:TX:a:t=Andante moderato.	!	!	!LO:TX:a:t=Andante	!	!	!LO:TX:a:t=Andante.	!	!	!LO:TX:a:t=Andante moder&colon;	!	!	!LO:TX:a:t=Kyrie tacet.	!LO:TX:a:t=Kyrie tacet.	!LO:TX:a:t=Kyrie tacet.	!LO:TX:a:t=Kyrie in E.	!	!LO:TX:a:t=Kyrie. in E.	!	!LO:TX:a:t=Andante.	!	!LO:TX:a:t=Andante.	!	!LO:TX:a:t=Andante.	!	!LO:TX:a:t=Andante.	!
(2E\	.	pp	(2E\	p <	1r	.	4e/	pp	1r	.	1ryy	00r	.	.	00r	.	.	00r	.	.	00r	.	.	1ryy	1ryy	1ryy	1r	.	1r	.	1r	.	1r	.	1r	.	1r	.
.	.	<	.	.	.	.	2e/	<	.	.	.	.	.	.	.	.	.	.	.	.	.	.	.	.	.	.	.	.	.	.	.	.	.	.	.	.	.	.
2G#\	.	.	2G#\	.	.	.	.	.	.	.	.	.	.	.	.	.	.	.	.	.	.	.	.	.	.	.	.	.	.	.	.	.	.	.	.	.	.	.
.	.	.	.	.	.	.	4e/	[[	.	.	.	.	.	.	.	.	.	.	.	.	.	.	.	.	.	.	.	.	.	.	.	.	.	.	.	.	.	.
=2	=2	=2	=2	=2	=2	=2	=2	=2	=2	=2	=2	=2	=2	=2	=2	=2	=2	=2	=2	=2	=2	=2	=2	=2	=2	=2	=2	=2	=2	=2	=2	=2	=2	=2	=2	=2	=2	=2
*	*	*	*	*	*2\right	*	*	*	*	*below	*	*	*	*	*	*	*	*	*	*	*	*	*	*	*	*	*	*	*	*	*	*	*	*	*	*	*	*
!	!	!	!	!	!	!	!	!	!LO:N:vis=1.	!	!	!	!	!	!	!	!	!	!	!	!	!	!	!	!	!	!	!	!	!	!	!	!	!	!	!	!	!
2A\	.	.	2A\	.	4r	p	(>2e/	.	(>1f#	pp	1ryy	.	.	.	.	.	.	.	.	.	.	.	.	1ryy	1ryy	1ryy	1r	.	1r	.	1r	.	1r	.	1r	.	1r	.
.	.	.	.	.	(2cc#^<\	.	.	.	.	.	.	.	.	.	.	.	.	.	.	.	.	.	.	.	.	.	.	.	.	.	.	.	.	.	.	.	.	.
2B\)	.	[[	2B\)	[	.	.	2d#/	.	.	.	.	.	.	.	.	.	.	.	.	.	.	.	.	.	.	.	.	.	.	.	.	.	.	.	.	.	.	.
.	.	.	.	.	8b\L	.	.	.	.	.	.	.	.	.	.	.	.	.	.	.	.	.	.	.	.	.	.	.	.	.	.	.	.	.	.	.	.	.
.	.	.	.	.	8a\J	.	.	.	.	.	.	.	.	.	.	.	.	.	.	.	.	.	.	.	.	.	.	.	.	.	.	.	.	.	.	.	.	.
=3	=3	=3	=3	=3	=3	=3	=3	=3	=3	=3	=3	=3	=3	=3	=3	=3	=3	=3	=3	=3	=3	=3	=3	=3	=3	=3	=3	=3	=3	=3	=3	=3	=3	=3	=3	=3	=3	=3
*^	*	*	*	*	*	*	*	*	*	*	*	*	*	*	*	*	*	*	*	*	*	*	*	*	*	*	*	*	*	*	*	*	*	*	*	*	*	*
*	*	*	*	*	*	*	*	*	*	*2\right	*	*	*	*	*	*	*	*	*	*	*	*	*	*	*	*	*	*	*	*	*	*	*	*	*	*	*	*	*
!	!	!	!	!	!	!	!	!	!	!	!LO:HP:a	!	!	!	!	!	!	!	!	!	!	!	!	!	!	!	!	!	!	!	!	!	!	!	!	!	!	!	!
4E\	2ryy	.	.	4E\	.	4g#\)	.	4e/)	.	4g#/)	<	1ryy	.	.	.	.	.	.	.	.	.	.	.	.	1ryy	1ryy	1ryy	1r	.	1r	.	1r	.	1r	.	1r	.	1r	.
!LO:TX:a:t=Cello&colon;	!	!	!	!	!	!	!	!	!	!	!	!	!	!	!	!	!	!	!	!	!	!	!	!	!	!	!	!	!	!	!	!	!	!	!	!	!	!	!
4r	.	.	.	4r	.	4r	.	4r	.	2b\	.	.	.	.	.	.	.	.	.	.	.	.	.	.	.	.	.	.	.	.	.	.	.	.	.	.	.	.	.
!	!	!	!LO:HP:a	!	!	!	!	!	!	!	!	!	!	!	!	!	!	!	!	!	!	!	!	!	!	!	!	!	!	!	!	!	!	!	!	!	!	!	!
(2d#\	2rC	.	<	2r	.	(2f#\	<	2r	.	.	.	.	.	.	.	.	.	.	.	.	.	.	.	.	.	.	.	.	.	.	.	.	.	.	.	.	.	.	.
.	.	.	.	.	.	.	.	.	.	4b\	.	.	.	.	.	.	.	.	.	.	.	.	.	.	.	.	.	.	.	.	.	.	.	.	.	.	.	.	.
=4	=4	=4	=4	=4	=4	=4	=4	=4	=4	=4	=4	=4	=4	=4	=4	=4	=4	=4	=4	=4	=4	=4	=4	=4	=4	=4	=4	=4	=4	=4	=4	=4	=4	=4	=4	=4	=4	=4	=4
!	!	!	!	!LO:TX:a:t=3.	!	!	!	!	!	!	!	!	!	!	!	!	!	!	!	!	!	!	!	!	!	!	!	!	!	!	!	!	!	!	!	!	!	!	!
2e\	1r	.	.	0r	.	(1cc#)	[	4r	.	(2b\	[	1ryy	.	.	.	.	.	.	.	.	.	.	.	.	1ryy	1ryy	1ryy	1r	.	1r	.	1r	.	1r	.	1r	.	1r	.
*	*	*	*	*	*	*	*	*2\right	*	*	*	*	*	*	*	*	*	*	*	*	*	*	*	*	*	*	*	*	*	*	*	*	*	*	*	*	*	*	*
.	.	.	.	.	.	.	.	(2gg#\	.	.	.	.	.	.	.	.	.	.	.	.	.	.	.	.	.	.	.	.	.	.	.	.	.	.	.	.	.	.	.
2f#\	.	.	.	.	.	.	.	.	.	2a#X\	.	.	.	.	.	.	.	.	.	.	.	.	.	.	.	.	.	.	.	.	.	.	.	.	.	.	.	.	.
.	.	.	.	.	.	.	.	8ff#\L	.	.	.	.	.	.	.	.	.	.	.	.	.	.	.	.	.	.	.	.	.	.	.	.	.	.	.	.	.	.	.
.	.	.	.	.	.	.	.	8ee\J	.	.	.	.	.	.	.	.	.	.	.	.	.	.	.	.	.	.	.	.	.	.	.	.	.	.	.	.	.	.	.
=5	=5	=5	=5	=5	=5	=5	=5	=5	=5	=5	=5	=5	=5	=5	=5	=5	=5	=5	=5	=5	=5	=5	=5	=5	=5	=5	=5	=5	=5	=5	=5	=5	=5	=5	=5	=5	=5	=5	=5
1B)	1r	.	[	.	.	4b\)	.	4dd#\)	.	4b\)	.	1ryy	00r	.	.	00r	.	.	00r	.	.	00r	.	.	1ryy	1ryy	1ryy	1r	.	1r	.	1r	.	1r	.	1r	.	1r	.
.	.	.	.	.	.	(8e\L	<	(4cc#\	<	4r	.	.	.	.	.	.	.	.	.	.	.	.	.	.	.	.	.	.	.	.	.	.	.	.	.	.	.	.	.
.	.	.	.	.	.	8f#\J	.	.	.	.	.	.	.	.	.	.	.	.	.	.	.	.	.	.	.	.	.	.	.	.	.	.	.	.	.	.	.	.	.
.	.	.	.	.	.	4d#\	.	4b\	.	2r	.	.	.	.	.	.	.	.	.	.	.	.	.	.	.	.	.	.	.	.	.	.	.	.	.	.	.	.	.
.	.	.	.	.	.	4f#\)	[[	4a\)	[[	.	.	.	.	.	.	.	.	.	.	.	.	.	.	.	.	.	.	.	.	.	.	.	.	.	.	.	.	.	.
=6	=6	=6	=6	=6	=6	=6	=6	=6	=6	=6	=6	=6	=6	=6	=6	=6	=6	=6	=6	=6	=6	=6	=6	=6	=6	=6	=6	=6	=6	=6	=6	=6	=6	=6	=6	=6	=6	=6	=6
!	!	!	!	!	!	!	!	!LO:TX:b:t=P:problem:diminuendolike accent	!	!	!	!	!	!	!	!	!	!	!	!	!	!	!	!	!	!	!	!	!	!	!	!	!	!	!	!	!	!	!
(2B#X\	1r	.	.	1r	.	(2f#^<\	.	1g#^>	.	4r	.	1ryy	.	.	.	.	.	.	.	.	.	.	.	.	1ryy	1ryy	1ryy	1r	.	1r	.	1r	.	1r	.	1r	.	1r	.
!	!	!	!	!	!	!	!	!	!	!LO:TX:b:t=P:problem:diminuendolike accent	!	!	!	!	!	!	!	!	!	!	!	!	!	!	!	!	!	!	!	!	!	!	!	!	!	!	!	!	!
.	.	.	.	.	.	.	.	.	.	(2dd#^<\	.	.	.	.	.	.	.	.	.	.	.	.	.	.	.	.	.	.	.	.	.	.	.	.	.	.	.	.	.
2c#\)	.	.	.	.	.	2e\)	.	.	.	.	.	.	.	.	.	.	.	.	.	.	.	.	.	.	.	.	.	.	.	.	.	.	.	.	.	.	.	.	.
.	.	.	.	.	.	.	.	.	.	[4ee\)	.	.	.	.	.	.	.	.	.	.	.	.	.	.	.	.	.	.	.	.	.	.	.	.	.	.	.	.	.
*v	*v	*	*	*	*	*	*	*	*	*	*	*	*	*	*	*	*	*	*	*	*	*	*	*	*	*	*	*	*	*	*	*	*	*	*	*	*	*	*
=7	=7	=7	=7	=7	=7	=7	=7	=7	=7	=7	=7	=7	=7	=7	=7	=7	=7	=7	=7	=7	=7	=7	=7	=7	=7	=7	=7	=7	=7	=7	=7	=7	=7	=7	=7	=7	=7	=7
!LO:TX:a:t=Org&colon;	!	!	!	!LO:DY:t=sf	!	!	!	!	!	!LO:DY:t=sf.	!	!	!	!	!	!	!	!	!	!	!	!	!	!	!	!	!	!	!	!	!	!	!	!	!	!	!	!
(2D#\	.	sf	(2D#\	sf	4c#\	rfz	(2f##X/	rfz	(4ee\]	sf	1ryy	.	.	.	.	.	.	.	.	.	.	.	.	1ryy	1ryy	1ryy	1r	.	1r	.	1r	.	1r	.	1r	.	1r	.
.	.	.	.	.	(4.d#\	.	.	.	8dd#\L	.	.	.	.	.	.	.	.	.	.	.	.	.	.	.	.	.	.	.	.	.	.	.	.	.	.	.	.	.
.	.	.	.	.	.	.	.	.	8cc#\J)	.	.	.	.	.	.	.	.	.	.	.	.	.	.	.	.	.	.	.	.	.	.	.	.	.	.	.	.	.
!	!	!	!	!	!	!	!	!	!LO:LB:g=original	!	!	!	!	!	!	!	!	!	!	!	!	!	!	!	!	!	!	!	!	!	!	!	!	!	!	!	!	!
2G#\)	.	.	2G#\)	.	.	.	4g#/)	.	8b/L	.	.	.	.	.	.	.	.	.	.	.	.	.	.	.	.	.	.	.	.	.	.	.	.	.	.	.	.	.
.	.	.	.	.	8c#\	.	.	.	8a#X/	.	.	.	.	.	.	.	.	.	.	.	.	.	.	.	.	.	.	.	.	.	.	.	.	.	.	.	.	.
.	.	.	.	.	[4B\)	.	[4ddn\	.	8g#/	.	.	.	.	.	.	.	.	.	.	.	.	.	.	.	.	.	.	.	.	.	.	.	.	.	.	.	.	.
.	.	.	.	.	.	.	.	.	8f#/J	.	.	.	.	.	.	.	.	.	.	.	.	.	.	.	.	.	.	.	.	.	.	.	.	.	.	.	.	.
!	!	!	!	!	!LO:LB:g=original	!	!	!	!	!	!	!	!	!	!	!	!	!	!	!	!	!	!	!	!	!	!	!	!	!	!	!	!	!	!	!	!	!
=8	=8	=8	=8	=8	=8	=8	=8	=8	=8	=8	=8	=8	=8	=8	=8	=8	=8	=8	=8	=8	=8	=8	=8	=8	=8	=8	=8	=8	=8	=8	=8	=8	=8	=8	=8	=8	=8	=8
(2C#/	.	sf	(2C#/	sf	4B/]	.	(4dd\]	sf	(>2e#X/	sf	1ryy	.	.	.	.	.	.	.	.	.	.	.	.	1ryy	1ryy	1ryy	1r	.	1r	.	1r	.	1r	.	1r	.	1r	.
.	.	.	.	.	(4.c#/	sf	8cc#\L	.	.	.	.	.	.	.	.	.	.	.	.	.	.	.	.	.	.	.	.	.	.	.	.	.	.	.	.	.	.	.
.	.	.	.	.	.	.	8b\J	.	.	.	.	.	.	.	.	.	.	.	.	.	.	.	.	.	.	.	.	.	.	.	.	.	.	.	.	.	.	.
!	!	!	!	!	!	!	!LO:LB:g=original	!	!	!	!	!	!	!	!	!	!	!	!	!	!	!	!	!	!	!	!	!	!	!	!	!	!	!	!	!	!	!
2F#\)	.	.	2F#\)	.	.	.	8a/L	.	4f#/)	.	.	.	.	.	.	.	.	.	.	.	.	.	.	.	.	.	.	.	.	.	.	.	.	.	.	.	.	.
.	.	.	.	.	8B/	.	8g#/	.	.	.	.	.	.	.	.	.	.	.	.	.	.	.	.	.	.	.	.	.	.	.	.	.	.	.	.	.	.	.
.	.	.	.	.	[>4A/)	.	8f#/	.	[4ccn\	.	.	.	.	.	.	.	.	.	.	.	.	.	.	.	.	.	.	.	.	.	.	.	.	.	.	.	.	.
.	.	.	.	.	.	.	8e/J)	.	.	.	.	.	.	.	.	.	.	.	.	.	.	.	.	.	.	.	.	.	.	.	.	.	.	.	.	.	.	.
!LO:LB:g=original	!	!	!	!	!	!	!	!	!	!	!	!	!	!	!	!	!	!	!	!	!	!	!	!	!	!	!	!	!	!	!	!	!	!	!	!	!	!
=9	=9	=9	=9	=9	=9	=9	=9	=9	=9	=9	=9	=9	=9	=9	=9	=9	=9	=9	=9	=9	=9	=9	=9	=9	=9	=9	=9	=9	=9	=9	=9	=9	=9	=9	=9	=9	=9	=9
!	!	!	!	!LO:DY:t=sf	!	!	!	!	!	!	!	!	!	!	!	!	!	!	!	!	!	!	!	!	!	!	!	!	!	!	!	!	!	!	!	!	!	!
(2BB/	.	sf	(2BB/	sf	4A/]	.	(2d#/	sf	4cc\]	sf	1ryy	0r	.	.	0r	.	.	0r	.	.	0r	.	.	1ryy	1ryy	1ryy	1r	.	1r	.	1r	.	1r	.	1r	.	1r	.
.	.	.	.	.	2B/	sf	.	.	(8b\L	.	.	.	.	.	.	.	.	.	.	.	.	.	.	.	.	.	.	.	.	.	.	.	.	.	.	.	.	.
.	.	.	.	.	.	.	.	.	8a\J)	.	.	.	.	.	.	.	.	.	.	.	.	.	.	.	.	.	.	.	.	.	.	.	.	.	.	.	.	.
4E\	.	.	4E\	.	.	.	4e/)	.	(4g#/	.	.	.	.	.	.	.	.	.	.	.	.	.	.	.	.	.	.	.	.	.	.	.	.	.	.	.	.	.
4D#\)	.	.	4D#\)	.	4B/	.	(4f#/	.	4b\	.	.	.	.	.	.	.	.	.	.	.	.	.	.	.	.	.	.	.	.	.	.	.	.	.	.	.	.	.
=10	=10	=10	=10	=10	=10	=10	=10	=10	=10	=10	=10	=10	=10	=10	=10	=10	=10	=10	=10	=10	=10	=10	=10	=10	=10	=10	=10	=10	=10	=10	=10	=10	=10	=10	=10	=10	=10	=10
!	!	!	!	!	!	!LO:HP:a	!	!	!	!	!	!	!	!	!	!	!	!	!	!	!	!	!	!	!	!	!	!	!	!	!	!	!	!	!	!	!	!
(>2C#/	.	.	(2C#/	.	2.c#\	<	4e/)	.	4ee\)	.	1ryy	.	.	.	.	.	.	.	.	.	.	.	.	1ryy	1ryy	1ryy	1r	.	1r	.	1r	.	1r	.	1r	.	1r	.
.	.	.	.	.	.	.	(2e^/	.	2g#/	>	.	.	.	.	.	.	.	.	.	.	.	.	.	.	.	.	.	.	.	.	.	.	.	.	.	.	.	.
2AA#X/)	.	.	2AA#X/)	.	.	[	.	.	.	]	.	.	.	.	.	.	.	.	.	.	.	.	.	.	.	.	.	.	.	.	.	.	.	.	.	.	.	.
.	.	.	.	.	[4e\	pp	[4cc#\)	pp	(>4gn/	pp	.	.	.	.	.	.	.	.	.	.	.	.	.	.	.	.	.	.	.	.	.	.	.	.	.	.	.	.
!	!	!	!LO:LB:g=original	!	!	!	!	!	!	!	!	!	!	!	!	!	!	!	!	!	!	!	!	!	!	!	!	!	!	!	!	!	!	!	!	!	!	!
=11	=11	=11	=11	=11	=11	=11	=11	=11	=11	=11	=11	=11	=11	=11	=11	=11	=11	=11	=11	=11	=11	=11	=11	=11	=11	=11	=11	=11	=11	=11	=11	=11	=11	=11	=11	=11	=11	=11
!	!	!	!	!	!	!LO:HP:a	!	!LO:HP:a	!	!LO:HP:a	!	!	!	!	!	!	!	!	!	!	!	!	!	!	!	!	!	!	!	!	!	!	!	!	!	!	!	!
1BB	.	.	1BB	p	4e\]	<	4cc#\]	<	2.f#/)	<	1ryy	1r	.	.	1r	.	.	1r	.	.	1r	.	.	1ryy	1ryy	1ryy	1r	.	1r	.	1r	.	1r	.	1r	.	1r	.
.	.	.	.	.	(8d#\L	.	2b\	.	.	.	.	.	.	.	.	.	.	.	.	.	.	.	.	.	.	.	.	.	.	.	.	.	.	.	.	.	.	.
!	!	!	!	!	!	!	!	!LO:HP:a	!	!	!	!	!	!	!	!	!	!	!	!	!	!	!	!	!	!	!	!	!	!	!	!	!	!	!	!	!	!
.	.	.	.	.	8c#\J	[	.	[ >	.	.	.	.	.	.	.	.	.	.	.	.	.	.	.	.	.	.	.	.	.	.	.	.	.	.	.	.	.	.
!	!	!	!	!	!	!LO:HP:a	!	!	!	!LO:HP:a	!	!	!	!	!	!	!	!	!	!	!	!	!	!	!	!	!	!	!	!	!	!	!	!	!	!	!	!
.	.	.	.	.	8d#\L	>	.	.	.	[ >	.	.	.	.	.	.	.	.	.	.	.	.	.	.	.	.	.	.	.	.	.	.	.	.	.	.	.	.
.	.	.	.	.	8c#\	.	.	.	.	.	.	.	.	.	.	.	.	.	.	.	.	.	.	.	.	.	.	.	.	.	.	.	.	.	.	.	.	.
.	.	.	.	.	8B\	.	4d#/	.	[4b\	]	.	.	.	.	.	.	.	.	.	.	.	.	.	.	.	.	.	.	.	.	.	.	.	.	.	.	.	.
!	!	!	!	!	!	!	!	!	!	!	!	!	!	!	!	!	!LO:DY:a	!	!	!	!	!	!	!	!	!	!	!	!	!	!	!	!	!	!	!	!	!
.	.	.	.	.	8A\J)	]]	.	]	.	.	.	.	.	.	.	.	p	.	.	.	.	.	.	.	.	.	.	.	.	.	.	.	.	.	.	.	.	.
=12	=12	=12	=12	=12	=12	=12	=12	=12	=12	=12	=12	=12	=12	=12	=12	=12	=12	=12	=12	=12	=12	=12	=12	=12	=12	=12	=12	=12	=12	=12	=12	=12	=12	=12	=12	=12	=12	=12
*	*	*	*	*	*	*	*	*	*	*	*	*	*	*	*	*	*	*	*	*	*2\right	*	*	*	*	*	*	*	*	*	*	*	*	*	*	*	*	*
!	!	!LO:DY:t=p	!	!LO:DY:t=p	!	!LO:DY:rj	!	!	!	!	!	!	!	!	!	!	!	!	!	!	!	!	!	!	!	!	!	!	!	!	!	!	!	!	!	!	!	!
!	!	!LO:HP:a	!	!LO:HP:a	!	!LO:HP:a	!	!LO:DY:rj	!	!	!	!	!	!	!LO:TX:a:t=tutti	!	!LO:HP:a	!	!	!LO:DY:a	!LO:TX:a:t=tutti.	!	!LO:HP:a	!	!	!	!	!	!	!	!	!	!	!	!	!	!	!
2E\	.	p <	2E\	p <	1G# 1E	p <	4B/	p	4b\]	.	1ryy	2r	.	p	2.G#/	Ky-	<	2r	.	p	(2.b\	Ky-	p <	1ryy	1ryy	1ryy	1r	.	1r	.	1r	.	1r	.	1r	.	1r	.
!	!	!	!	!	!	!	!	!	!	!LO:HP:a	!	!	!	!	!	!	!	!	!	!	!	!	!	!	!	!	!	!	!	!	!	!	!	!	!	!	!	!
.	.	.	.	.	.	.	2B/	.	(2b\	<	.	.	.	.	.	.	.	.	.	.	.	.	.	.	.	.	.	.	.	.	.	.	.	.	.	.	.	.
!	!	!	!	!	!	!	!	!	!	!	!	!	!	!	!	!	!	!LO:TX:a:t=tutti	!	!	!	!	!	!	!	!	!	!	!	!	!	!	!	!	!	!	!	!
2E\	.	[[	2E\	[	.	.	.	.	.	.	.	4E\	Ky-	.	.	.	.	4e/	Ky-	.	.	.	.	.	.	.	.	.	.	.	.	.	.	.	.	.	.	.
!	!	!	!	!	!	!	!	!	!	!	!	!	!	!	!	!	!	!	!	!LO:HP:a	!	!	!	!	!	!	!	!	!	!	!	!	!	!	!	!	!	!
.	.	.	.	.	.	[	4B#X/	.	4b#X\	[[	.	4E\	-ri-	.	4G#/	-ri-	.	4e/	-ri-	<	4b#X\	-ri-	.	.	.	.	.	.	.	.	.	.	.	.	.	.	.	.
=13	=13	=13	=13	=13	=13	=13	=13	=13	=13	=13	=13	=13	=13	=13	=13	=13	=13	=13	=13	=13	=13	=13	=13	=13	=13	=13	=13	=13	=13	=13	=13	=13	=13	=13	=13	=13	=13	=13
*	*	*	*	*	*	*	*	*	*	*	*	*	*	*	*2\right	*	*	*	*	*	*	*	*	*	*	*	*	*	*	*	*	*	*	*	*	*	*	*
2AA/	.	.	2AA/	.	2A 2E/	.	2c#/	.	2cc#\)	.	1ryy	2.AA/	-e	.	2.A\	-e	[	2.e/	-e	[	2.cc#\)	-e	.	1ryy	1ryy	1ryy	1r	.	1r	.	1r	.	1r	.	1r	.	1r	.
2r	.	.	2r	.	2r	.	2r	.	2r	.	.	.	.	.	.	.	.	.	.	.	.	.	[	.	.	.	.	.	.	.	.	.	.	.	.	.	.	.
.	.	.	.	.	.	.	.	.	.	.	.	4r	.	.	4r	.	.	4r	.	.	4r	.	.	.	.	.	.	.	.	.	.	.	.	.	.	.	.	.
!	!	!	!	!	!	!	!	!	!LO:LB:g=original	!	!	!	!	!	!	!	!	!	!	!	!	!	!	!	!	!	!	!	!	!	!	!	!	!	!	!	!	!
=14	=14	=14	=14	=14	=14	=14	=14	=14	=14	=14	=14	=14	=14	=14	=14	=14	=14	=14	=14	=14	=14	=14	=14	=14	=14	=14	=14	=14	=14	=14	=14	=14	=14	=14	=14	=14	=14	=14
!	!	!	!	!	!	!LO:HP:a	!	!LO:HP:a	!	!LO:HP:a	!	!	!	!	!	!	!	!	!	!LO:HP:a	!	!	!LO:HP:a	!	!	!	!	!	!	!	!	!	!	!	!	!	!	!
2C#/	.	.	2C#/	.	1G# 1E#X	<	4e#X 4c#/	<	4g#/	p <	1ryy	2r	.	.	2r	.	.	2.e#X/	Ky-	<	2.g#/	Ky-	<	1ryy	1ryy	1ryy	1r	.	1r	.	1r	.	1r	.	1r	.	1r	.
.	.	.	.	.	.	.	2e# 2c#/	.	2g#/	.	.	.	.	.	.	.	.	.	.	.	.	.	.	.	.	.	.	.	.	.	.	.	.	.	.	.	.	.
!	!	!	!	!	!	!	!	!	!	!	!	!	!	!	!	!	!LO:HP:a	!	!	!	!	!	!	!	!	!	!	!	!	!	!	!	!	!	!	!	!	!
2C#/	.	.	2C#/	.	.	.	.	.	.	.	.	4C#/	Ky-	.	4G#/	Ky-	<	.	.	.	.	.	.	.	.	.	.	.	.	.	.	.	.	.	.	.	.	.
.	.	.	.	.	.	[	4e# 4c#/	[[	4g#/	[	.	4C#/	-ri-	.	4c#\	-ri-	[[	4e#/	-ri-	[[	4g#/	-ri-	[[	.	.	.	.	.	.	.	.	.	.	.	.	.	.	.
=15	=15	=15	=15	=15	=15	=15	=15	=15	=15	=15	=15	=15	=15	=15	=15	=15	=15	=15	=15	=15	=15	=15	=15	=15	=15	=15	=15	=15	=15	=15	=15	=15	=15	=15	=15	=15	=15	=15
*	*	*	*	*	*	*	*	*	*	*	*	*2\right	*	*	*	*	*	*	*	*	*	*	*	*	*	*	*	*	*	*	*	*	*	*	*	*	*	*
2FF#/	.	.	2FF#/	.	2A 2F#/	.	2f# 2c#/	.	2a/	.	1ryy	2.F#\	-e	.	2.c#\	-e	.	2.f#/	-e	.	2.a/	-e	.	1ryy	1ryy	1ryy	1r	.	1r	.	1r	.	1r	.	1r	.	1r	.
2r	.	.	2r	.	2r	.	2r	.	2r	.	.	.	.	.	.	.	.	.	.	.	.	.	.	.	.	.	.	.	.	.	.	.	.	.	.	.	.	.
.	.	.	.	.	.	.	.	.	.	.	.	4r	.	.	4r	.	.	4r	.	.	4r	.	.	.	.	.	.	.	.	.	.	.	.	.	.	.	.	.
!	!	!	!	!	!LO:LB:g=original	!	!LO:LB:g=original	!	!	!	!	!	!	!	!	!	!	!	!	!	!	!	!	!	!	!	!	!	!	!	!	!	!	!	!	!	!	!
=16	=16	=16	=16	=16	=16	=16	=16	=16	=16	=16	=16	=16	=16	=16	=16	=16	=16	=16	=16	=16	=16	=16	=16	=16	=16	=16	=16	=16	=16	=16	=16	=16	=16	=16	=16	=16	=16	=16
!	!	!	!	!	!	!	!	!	!	!LO:HP:a	!	!	!	!LO:HP:a	!	!	!	!	!	!LO:HP:a	!	!	!LO:HP:a	!	!	!	!	!	!	!	!	!	!	!	!	!	!	!
(2F#\	.	.	2F#\	.	4r	.	4a/	.	4cc#\	<	1ryy	(2F#\	Ky-	<	4r	.	.	2.a/	Ky-	<	(2.cc#\	Ky-	<	1ryy	1ryy	1ryy	1r	.	1r	.	1r	.	1r	.	1r	.	1r	.
!	!	!	!	!LO:HP:a	!	!	!	!	!	!	!	!	!	!	!	!	!LO:HP:a	!	!	!	!	!	!	!	!	!	!	!	!	!	!	!	!	!	!	!	!	!
.	.	.	.	<	2f#\	.	2a/	.	(2cc#\	.	.	.	.	.	2f#\	Ky-	<	.	.	.	.	.	.	.	.	.	.	.	.	.	.	.	.	.	.	.	.	.
!	!	!LO:HP:a	!	!	!	!	!	!	!	!	!	!	!	!	!	!	!	!	!	!	!	!	!	!	!	!	!	!	!	!	!	!	!	!	!	!	!	!
2E\	.	<	2E\	.	.	.	.	.	.	.	.	2E\)	-ri-	.	.	.	.	.	.	.	.	.	.	.	.	.	.	.	.	.	.	.	.	.	.	.	.	.
.	.	.	.	.	[4f#\	<	[4a/	.	4ccn\	.	.	.	.	[	4f#\	-ri-	[[	4a/	-ri-	.	4ccn\)	-ri-	.	.	.	.	.	.	.	.	.	.	.	.	.	.	.	.
!	!	!	!	!	!	!	!	!	!	!	!	!LO:LB:g=original	!	!	!	!	!	!	!	!	!	!	!	!	!	!	!	!	!	!	!	!	!	!	!	!	!	!
=17	=17	=17	=17	=17	=17	=17	=17	=17	=17	=17	=17	=17	=17	=17	=17	=17	=17	=17	=17	=17	=17	=17	=17	=17	=17	=17	=17	=17	=17	=17	=17	=17	=17	=17	=17	=17	=17	=17
!	!	!	!	!	!	!	!	!	!	!	!	!	!	!LO:HP:a	!	!	!	!	!	!	!	!	!	!	!	!	!	!	!	!	!	!	!	!	!	!	!	!
2D#\	.	.	2D#\	.	4f#\]	.	4a/]	.	4b\)	.	1ryy	(2D#\	-e	<	2f#\	-e	.	(2a/	-e	.	(2b\	-e,	.	1ryy	1ryy	1ryy	1r	.	1r	.	1r	.	1r	.	1r	.	1r	.
.	.	.	.	.	2B/	.	(4f#/	.	2b\	.	.	.	.	.	.	.	.	.	.	.	.	.	.	.	.	.	.	.	.	.	.	.	.	.	.	.	.	.
2E\	.	[	2E\	.	.	.	4g#/)	.	.	.	.	2E\	e-	.	2e\	e-	.	2g#/)	e-	.	2ee\)	e-	.	.	.	.	.	.	.	.	.	.	.	.	.	.	.	.
.	.	.	.	.	[4g#\	.	4e/	.	[4ee\	.	.	.	.	.	.	.	.	.	.	[	.	.	[	.	.	.	.	.	.	.	.	.	.	.	.	.	.	.
!LO:LB:g=original	!	!	!	!	!	!	!	!	!	!	!	!	!	!	!LO:LB:g=original	!	!	!LO:LB:g=original	!	!	!LO:LB:g=original	!	!	!	!	!	!	!	!	!	!	!	!	!	!	!	!	!
=18	=18	=18	=18	=18	=18	=18	=18	=18	=18	=18	=18	=18	=18	=18	=18	=18	=18	=18	=18	=18	=18	=18	=18	=18	=18	=18	=18	=18	=18	=18	=18	=18	=18	=18	=18	=18	=18	=18
!	!	!	!	!	!	!	!	!	!	!	!	!	!	!	!	!	!	!	!	!LO:HP:a	!	!	!	!	!	!	!	!	!	!	!	!	!	!	!	!	!	!
2C#/	.	.	2C#/	.	4g#\]	.	4e/	.	4ee\]	[	1ryy	2C#/	-le-	.	(2.A#X\	-le-	.	(2gn/	-le-	<	2.ee\	-le-	.	1ryy	1ryy	1ryy	1r	.	1r	.	1r	.	1r	.	1r	.	1r	.
.	.	.	.	.	2B#X/	.	(4gn/	.	2e/	.	.	.	.	.	.	.	.	.	.	.	.	.	.	.	.	.	.	.	.	.	.	.	.	.	.	.	.	.
2F#\)	.	.	2F#\	.	.	.	4f#/)	.	.	.	.	2F#\)	-i-	.	.	.	.	4f#/)	.	.	.	.	.	.	.	.	.	.	.	.	.	.	.	.	.	.	.	.
.	.	.	.	[	(4c#/	[[	(4e/	.	(4a#X/	.	.	.	.	[[	4c#\)	-i-	.	4e/	-i-	[[	4a#X/	-i-	.	.	.	.	.	.	.	.	.	.	.	.	.	.	.	.
!	!	!	!	!	!	!	!	!	!LO:LB:g=original	!	!	!	!	!	!	!	!	!	!	!	!	!	!	!	!	!	!	!	!	!	!	!	!	!	!	!	!	!
=19	=19	=19	=19	=19	=19	=19	=19	=19	=19	=19	=19	=19	=19	=19	=19	=19	=19	=19	=19	=19	=19	=19	=19	=19	=19	=19	=19	=19	=19	=19	=19	=19	=19	=19	=19	=19	=19	=19
!	!	!LO:DY:rj	!	!	!	!LO:DY:a	!	!LO:HP:a:t=cres	!LO:TX:t=P:problem:skreślone takty [4]	!LO:HP:a:t=cres-	!	!	!	!	!	!	!	!	!	!	!	!	!	!	!	!	!	!	!	!	!	!	!	!	!	!	!	!
4BB/	.	f	4BB/	.	4B/)	<	4d#/)	<	4b/)	<	1ryy	2BB/	-son	.	2B\	-son	.	2.d#/	-son	.	2.b\	-son	.	1ryy	1ryy	1ryy	1r	.	1r	.	1r	.	1r	.	1r	.	1r	.
4r	.	.	4r	.	4D#/|	.	4d#/|	.	4d#'/	.	.	.	.	.	.	.	.	.	.	.	.	.	.	.	.	.	.	.	.	.	.	.	.	.	.	.	.	.
2rBB	.	.	2r	.	4F#/|	.	4f#/|	.	4f#'/	.	.	2r	.	.	2r	.	.	.	.	.	.	.	.	.	.	.	.	.	.	.	.	.	.	.	.	.	.	.
!	!	!	!	!	!	!	!	!	!	!	!	!	!	!	!	!	!	!LO:TX:t=P:problem:kreska taktowa podwójna	!	!	!	!	!	!	!	!	!	!	!	!	!	!	!	!	!	!	!	!
.	.	.	.	.	4B/|	[[	4b/|	.	4b'/	.	.	.	.	.	.	.	.	4r	.	.	4r	.	.	.	.	.	.	.	.	.	.	.	.	.	.	.	.	.
=20	=20	=20	=20	=20	=20	=20	=20	=20	=20	=20	=20	=20	=20	=20	=20	=20	=20	=20	=20	=20	=20	=20	=20	=20	=20	=20	=20	=20	=20	=20	=20	=20	=20	=20	=20	=20	=20	=20
!	!	!	!	!	!	!	!	!LO:DY:t=f	!	!	!	!	!	!	!	!	!LO:DY:a	!LO:TX:a:t=1.	!	!	!	!	!LO:DY:rj	!	!	!	!	!	!	!	!	!	!	!	!	!	!	!
2B\	.	f	2B\	f	4d#\	f	4dd#\	f	4dd#\	f	1ryy	2B\	Ky-	f	2r	.	f	1r	.	.	2.dd#\	Ky-	f	1ryy	1ryy	1ryy	1r	.	1r	.	1r	.	1r	.	1r	.	1r	.
.	.	.	.	.	2D#/	.	2d#/	.	2d#/	.	.	.	.	.	.	.	.	.	.	.	.	.	.	.	.	.	.	.	.	.	.	.	.	.	.	.	.	.
2F##X\	.	.	2F##X\	.	.	.	.	.	.	.	.	2F##X\	-ri-	.	[2d#\	Ky-	.	.	.	.	.	.	.	.	.	.	.	.	.	.	.	.	.	.	.	.	.	.
.	.	.	.	.	[4d#\	.	4a#X/	.	[>4a#X/	.	.	.	.	.	.	.	.	.	.	.	4a#X/	-ri-	.	.	.	.	.	.	.	.	.	.	.	.	.	.	.	.
!	!	!	!LO:LB:g=original	!	!	!	!	!	!	!	!	!	!	!	!	!	!	!	!	!	!	!	!	!	!	!	!	!	!	!	!	!	!	!	!	!	!	!
=21	=21	=21	=21	=21	=21	=21	=21	=21	=21	=21	=21	=21	=21	=21	=21	=21	=21	=21	=21	=21	=21	=21	=21	=21	=21	=21	=21	=21	=21	=21	=21	=21	=21	=21	=21	=21	=21	=21
!	!	!	!	!	!	!	!LO:SIC:v:s=4a#	!	!	!	!	!	!	!	!	!	!	!LO:TX:t=P:problem:skreślone słowo "Solo"	!	!	!	!	!	!	!	!	!	!	!	!	!	!	!	!	!	!	!	!
2G#\	.	.	2G#\	.	4d#\]	.	4a/	.	4a#/]	.	1ryy	2G#\	-e	.	4d#\]	.	.	2r	.	.	2.b\	-e	.	1ryy	1ryy	1ryy	1r	.	1r	.	1r	.	1r	.	1r	.	1r	.
.	.	.	.	.	2B/	.	2g#/	.	2g#/	.	.	.	.	.	4B\	-ri-	.	.	.	f	.	.	.	.	.	.	.	.	.	.	.	.	.	.	.	.	.	.
2E\	.	.	2E\	.	.	.	.	.	.	.	.	2E\	e-	.	4e\	-e	.	2g#/	e-	.	.	.	.	.	.	.	.	.	.	.	.	.	.	.	.	.	.	.
.	.	.	.	.	4g#\	.	[4cc#\	.	4ee\	.	.	.	.	.	4e\	e-	.	.	.	.	4cc#\	e-	.	.	.	.	.	.	.	.	.	.	.	.	.	.	.	.
=22	=22	=22	=22	=22	=22	=22	=22	=22	=22	=22	=22	=22	=22	=22	=22	=22	=22	=22	=22	=22	=22	=22	=22	=22	=22	=22	=22	=22	=22	=22	=22	=22	=22	=22	=22	=22	=22	=22
2F#\	.	.	2F#\	.	2f# 2d#\	ff	4cc#\]	.	4dd#\	.	1ryy	2F#\	-le-	.	2d#\	-le-	.	(>2f#/	-le-	.	(4cc#\	-le-	.	1ryy	1ryy	1ryy	1r	.	1r	.	1r	.	1r	.	1r	.	1r	.
.	.	.	.	.	.	.	2b\	.	2ff#\	.	.	.	.	.	.	.	.	.	.	.	2b\)	.	.	.	.	.	.	.	.	.	.	.	.	.	.	.	.	.
2FF#/	.	.	2FF#/	.	2e 2c#\	.	.	.	.	.	.	2F#\	-i-	.	2c#\	-i-	.	2e/)	-i-	.	.	.	.	.	.	.	.	.	.	.	.	.	.	.	.	.	.	.
.	.	.	.	.	.	.	4c#/	.	4a#X/	.	.	.	.	.	.	.	.	.	.	.	4a#X/	-i-	.	.	.	.	.	.	.	.	.	.	.	.	.	.	.	.
=23	=23	=23	=23	=23	=23	=23	=23	=23	=23	=23	=23	=23	=23	=23	=23	=23	=23	=23	=23	=23	=23	=23	=23	=23	=23	=23	=23	=23	=23	=23	=23	=23	=23	=23	=23	=23	=23	=23
!	!	!	!	!	!	!	!	!	!	!	!	!	!	!	!	!	!LO:DY:a	!	!	!	!	!	!	!	!	!	!	!	!	!	!	!	!	!	!	!	!	!
4BB/	.	.	4BB/	.	4d# 4B\	.	4d#/	.	4b\	.	1ryy	4BB/	-son	.	4B\	-son	pp	4d#/	-son	.	4b\	-son	.	1ryy	1ryy	1ryy	1r	.	1r	.	1r	.	1r	.	1r	.	1r	.
.	.	.	.	.	.	.	.	.	.	.	.	.	.	p	.	.	.	.	.	.	.	.	.	.	.	.	.	.	.	.	.	.	.	.	.	.	.	.
4r	.	.	4r	.	4r	.	4r	.	4r	.	.	4BB/	e-	.	4B\	e-	.	4r	.	.	4r	.	.	.	.	.	.	.	.	.	.	.	.	.	.	.	.	.
2r	.	.	2r	.	2r	.	2r	.	2r	.	.	4BB/	-le-	.	4B\	-le-	.	2r	.	.	2r	.	.	.	.	.	.	.	.	.	.	.	.	.	.	.	.	.
.	.	.	.	.	.	.	.	.	.	.	.	4BB/	-i-	.	4B\	-i-	.	.	.	.	.	.	.	.	.	.	.	.	.	.	.	.	.	.	.	.	.	.
!	!	!	!	!	!LO:LB:g=original	!	!LO:LB:g=original	!	!LO:LB:g=original	!	!	!LO:LB:g=original	!	!	!	!	!	!	!	!	!	!	!	!	!	!	!	!	!	!	!	!	!	!	!	!	!	!
=24	=24	=24	=24	=24	=24	=24	=24	=24	=24	=24	=24	=24	=24	=24	=24	=24	=24	=24	=24	=24	=24	=24	=24	=24	=24	=24	=24	=24	=24	=24	=24	=24	=24	=24	=24	=24	=24	=24
!	!	!	!	!	!	!LO:DY:t=f.	!	!LO:DY:t=f.	!	!	!	!	!	!	!	!	!	!	!	!	!	!	!	!	!	!	!	!	!	!	!	!	!	!	!	!	!	!
2B\	.	f	2B\	f	4d#\	f	4dd#\	f	4dd#\	f	1ryy	4BB/	-son	.	4B\	-son	.	1r	.	.	2.dd#\	Chri-	.	1ryy	1ryy	1ryy	1r	.	1r	.	1r	.	1r	.	1r	.	1r	.
!	!	!	!	!	!	!	!	!	!	!	!	!	!	!	!	!	!LO:DY:a	!	!	!	!	!	!	!	!	!	!	!	!	!	!	!	!	!	!	!	!	!
.	.	.	.	.	2D#/	.	2d#/	.	2d#/	.	.	4B\	Ky-	.	4r	.	f	.	.	.	.	.	.	.	.	.	.	.	.	.	.	.	.	.	.	.	.	.
2F##X\	.	.	2F##X\	.	.	.	.	.	.	.	.	2F##X\	-ri-	.	[2d#\	Ky-	.	.	.	.	.	.	.	.	.	.	.	.	.	.	.	.	.	.	.	.	.	.
.	.	.	.	.	[4d#\	.	[>4a#X/	.	[>4a#X/	.	.	.	.	.	.	.	.	.	.	.	4an/	-ste	.	.	.	.	.	.	.	.	.	.	.	.	.	.	.	.
!	!	!	!	!	!	!	!	!	!	!	!	!	!	!	!LO:LB:g=original	!	!	!	!	!	!LO:LB:g=original	!	!	!	!	!	!	!	!	!	!	!	!	!	!	!	!	!
=25	=25	=25	=25	=25	=25	=25	=25	=25	=25	=25	=25	=25	=25	=25	=25	=25	=25	=25	=25	=25	=25	=25	=25	=25	=25	=25	=25	=25	=25	=25	=25	=25	=25	=25	=25	=25	=25	=25
2G#\	.	.	2G#\	.	4d#\]	.	4a#/]	.	4a#/]	.	1ryy	2G#\	-e	.	4d#\]	.	.	2r	.	.	2.b\	e-	.	1ryy	1ryy	1ryy	1r	.	1r	.	1r	.	1r	.	1r	.	1r	.
.	.	.	.	.	2B/	.	2g#/	.	2g#/	.	.	.	.	.	4B\	-ri-	.	.	.	.	.	.	.	.	.	.	.	.	.	.	.	.	.	.	.	.	.	.
2E\	.	.	2E\	.	.	.	.	.	.	.	.	2E\	e-	.	4e\	-e	.	2g#/	e-	.	.	.	.	.	.	.	.	.	.	.	.	.	.	.	.	.	.	.
.	.	.	.	.	4g#\	.	[4cc#\	.	4ee\	.	.	.	.	.	4e\	e-	.	.	.	.	4cc#\	.	.	.	.	.	.	.	.	.	.	.	.	.	.	.	.	.
!LO:LB:g=original	!	!	!	!	!	!	!	!	!	!	!	!	!	!	!	!	!	!	!	!	!	!	!	!	!	!	!	!	!	!	!	!	!	!	!	!	!	!
=26	=26	=26	=26	=26	=26	=26	=26	=26	=26	=26	=26	=26	=26	=26	=26	=26	=26	=26	=26	=26	=26	=26	=26	=26	=26	=26	=26	=26	=26	=26	=26	=26	=26	=26	=26	=26	=26	=26
2F#\	.	.	2F#\	.	2f# 2d#\	.	4cc#\]	.	4dd#\	.	1ryy	2F#\	-le-	.	(2d#\	-le-	.	2f#/	-le-	.	4cc#\	-le-	.	1ryy	1ryy	1ryy	1r	.	1r	.	1r	.	1r	.	1r	.	1r	.
.	.	.	.	.	.	.	2b\	.	2ff#\	.	.	.	.	.	.	.	.	.	.	.	2b\	.	.	.	.	.	.	.	.	.	.	.	.	.	.	.	.	.
2FF#/	.	.	2FF#/	.	2e 2c#\	.	.	.	.	.	.	2F#\	-i-	.	2c#\)	-i-	.	2e/	-i-	.	.	.	.	.	.	.	.	.	.	.	.	.	.	.	.	.	.	.
.	.	.	.	.	.	.	4c#/	.	4a#X/	.	.	.	.	.	.	.	.	.	.	.	4a#X/	-i-	.	.	.	.	.	.	.	.	.	.	.	.	.	.	.	.
!	!	!	!	!	!	!	!	!	!	!	!	!	!	!	!	!	!	!LO:SIC:v:t=custos e	!	!	!	!	!	!	!	!	!	!	!	!	!	!	!	!	!	!	!	!
!	!	!	!	!	!	!	!	!	!	!	!	!	!	!	!	!	!	!LO:LB:g=original	!	!	!	!	!	!	!	!	!	!	!	!	!	!	!	!	!	!	!	!
=27	=27	=27	=27	=27	=27	=27	=27	=27	=27	=27	=27	=27	=27	=27	=27	=27	=27	=27	=27	=27	=27	=27	=27	=27	=27	=27	=27	=27	=27	=27	=27	=27	=27	=27	=27	=27	=27	=27
1BB	.	.	4BB/	.	4d# 4B/	.	4d#/	.	4b/	.	1ryy	4BB/	-son	.	4B\	-son	.	4d#/	-son	.	4b\	-son	.	1ryy	1ryy	1ryy	1r	.	1r	.	1r	.	1r	.	1r	.	1r	.
!	!	!	!	!	!	!	!	!	!	!	!	!	!	!	!	!	!LO:DY:a	!	!	!	!	!	!	!	!	!	!	!	!	!	!	!	!	!	!	!	!	!
.	.	.	.	.	.	.	.	.	.	.	.	.	.	.	.	.	pp	.	.	.	.	.	.	.	.	.	.	.	.	.	.	.	.	.	.	.	.	.
!	!	!	!	!	!	!	!	!	!	!	!	!	!	!	!LO:TX:a:t=Solo	!	!	!	!	!	!LO:TX:a:t=Solo.	!	!	!	!	!	!	!	!	!	!	!	!	!	!	!	!	!
.	.	.	4r	.	4r	.	4r	.	4r	.	.	4D#\	e-	.	4B\	e-	.	2f#/	e-	.	4b\	Chri-	.	.	.	.	.	.	.	.	.	.	.	.	.	.	.	.
.	.	.	2r	.	2r	.	2r	.	4r	.	.	4D#\	-le-	.	4B\	-le-	.	.	.	.	4b\	-ste	.	.	.	.	.	.	.	.	.	.	.	.	.	.	.	.
.	.	.	.	.	.	.	.	.	.	p	.	.	.	.	.	.	.	.	.	.	.	.	.	.	.	.	.	.	.	.	.	.	.	.	.	.	.	.
!	!	!	!	!	!	!	!	!	!LO:TX:a:t=dol&colon;	!	!	!	!	!	!	!	!	!LO:TX:a:t=dis	!	!	!	!	!	!	!	!	!	!	!	!	!	!	!	!	!	!	!	!
.	.	.	.	.	.	.	.	.	[4b\	.	.	4F#\	-i-	.	4A\	-i-	.	4d#/	-lei-	.	4b\	e-	.	.	.	.	.	.	.	.	.	.	.	.	.	.	.	.
=28	=28	=28	=28	=28	=28	=28	=28	=28	=28	=28	=28	=28	=28	=28	=28	=28	=28	=28	=28	=28	=28	=28	=28	=28	=28	=28	=28	=28	=28	=28	=28	=28	=28	=28	=28	=28	=28	=28
!	!	!LO:HP:a	!LO:TX:a:t=2	!	!LO:TX:a:t=2	!	!LO:TX:a:t=1.	!	!	!	!	!	!	!	!	!	!	!	!	!	!	!	!LO:HP:a	!	!	!	!	!	!	!	!	!	!	!	!	!	!	!
(2E\	.	<	0r	.	0r	.	1r	.	4b\]	<	1ryy	4E\	-son	.	4G#/	-son	.	4e/	-son	.	(4b\	-le-	<	1ryy	1ryy	1ryy	1r	.	1r	.	1r	.	1r	.	1r	.	1r	.
.	.	.	.	.	.	.	.	.	(8cc#\L	.	.	4r	.	.	4r	.	.	4r	.	.	8cc#\L	.	.	.	.	.	.	.	.	.	.	.	.	.	.	.	.	.
.	.	.	.	.	.	.	.	.	8dd#\J	.	.	.	.	.	.	.	.	.	.	.	8dd#\J	.	.	.	.	.	.	.	.	.	.	.	.	.	.	.	.	.
!	!	!	!	!	!	!	!	!	!	!	!	!	!	!	!	!	!	!	!	!LO:HP:a	!	!	!	!	!	!	!	!	!	!	!	!	!	!	!	!	!	!
2C#/)	.	.	.	.	.	.	.	.	4ee\	.	.	2r	.	.	2r	.	.	(4g#/	Chri-	<	4ee\	.	.	.	.	.	.	.	.	.	.	.	.	.	.	.	.	.
.	.	[	.	.	.	.	.	.	4ff#\)	[	.	.	.	.	.	.	.	4a#X/	.	.	4ff#\	-i-	[	.	.	.	.	.	.	.	.	.	.	.	.	.	.	.
=29	=29	=29	=29	=29	=29	=29	=29	=29	=29	=29	=29	=29	=29	=29	=29	=29	=29	=29	=29	=29	=29	=29	=29	=29	=29	=29	=29	=29	=29	=29	=29	=29	=29	=29	=29	=29	=29	=29
!	!	!	!	!	!	!	!	!	!LO:TX:b:t=P:problem:diminuendolike accent	!	!	!LO:TX:a:t=1.	!	!	!	!	!	!	!	!	!	!	!	!	!	!	!	!	!	!	!	!	!	!	!	!	!	!
1BB	.	.	.	.	.	.	4r	.	(8ee^<\L	.	1ryy	1r	.	.	4r	.	.	4b/)	-ste	[	4b\)	-son	.	1ryy	1ryy	1ryy	1r	.	1r	.	1r	.	1r	.	1r	.	1r	.
.	.	.	.	.	.	.	.	.	8dd#\J)	.	.	.	.	.	.	.	.	.	.	.	.	.	pp	.	.	.	.	.	.	.	.	.	.	.	.	.	.	.
!	!	!	!	!	!	!	!	!	!	!	!	!	!	!	!	!	!	!LO:TX:t=P:problem:łuk nad słowem "Solo"	!	!	!	!	!	!	!	!	!	!	!	!	!	!	!	!	!	!	!	!
!	!	!	!	!	!	!	!	!	!LO:TX:b:t=P:problem:diminuendolike accent	!	!	!	!	!	!	!	!	!LO:TX:a:t=Solo	!	!LO:DY:a	!LO:TX:a:t=Solo	!	!	!	!	!	!	!	!	!	!	!	!	!	!	!	!	!
.	.	.	.	.	.	.	2r	.	(8dd#^<\L	.	.	.	.	.	4B\	Chri-	.	(>4e/	e-	pp	(>4g#/	e-	.	.	.	.	.	.	.	.	.	.	.	.	.	.	.	.
.	.	.	.	.	.	.	.	.	8cc#\J)	.	.	.	.	.	.	.	.	.	.	.	.	.	.	.	.	.	.	.	.	.	.	.	.	.	.	.	.	.
!	!	!	!	!	!	!	!	!	!LO:TX:b:t=P:problem:diminuendolike accent	!	!	!	!	!	!	!	!	!	!	!	!	!	!	!	!	!	!	!	!	!	!	!	!	!	!	!	!	!
.	.	.	.	.	.	.	.	.	(8cc#^<\L	.	.	.	.	.	4B\	-ste	.	4d#/	-le-	.	4f#/	-le-	.	.	.	.	.	.	.	.	.	.	.	.	.	.	.	.
.	.	.	.	.	.	.	.	p	8b\J)	.	.	.	.	.	.	.	.	.	.	.	.	.	.	.	.	.	.	.	.	.	.	.	.	.	.	.	.	.
!	!	!	!	!	!	!	!	!	!LO:TX:b:t=P:problem:diminuendolike accent	!	!	!	!	!	!	!	!	!	!	!	!	!	!	!	!	!	!	!	!	!	!	!	!	!	!	!	!	!
.	.	.	.	.	.	.	[4b\	.	(8b^<\L	.	.	.	.	.	4B\	e-	.	4f#/	-i-	.	4a/	-i-	.	.	.	.	.	.	.	.	.	.	.	.	.	.	.	.
!	!	!	!	!	!	!	!	!	!	!	!	!LO:TX:t=P:problem:kreska taktowa podwójna	!	!	!	!	!	!	!	!	!	!	!	!	!	!	!	!	!	!	!	!	!	!	!	!	!	!
.	.	.	.	.	.	.	.	.	8a\J)	.	.	.	.	.	.	.	.	.	.	.	.	.	.	.	.	.	.	.	.	.	.	.	.	.	.	.	.	.
!	!	!	!	!	!	!	!	!	!LO:LB:g=original	!	!	!	!	!	!	!	!	!	!	!	!	!	!	!	!	!	!	!	!	!	!	!	!	!	!	!	!	!
=30	=30	=30	=30	=30	=30	=30	=30	=30	=30	=30	=30	=30	=30	=30	=30	=30	=30	=30	=30	=30	=30	=30	=30	=30	=30	=30	=30	=30	=30	=30	=30	=30	=30	=30	=30	=30	=30	=30
.	.	.	.	.	.	.	.	.	8qb/	.	.	.	.	.	.	.	.	.	.	.	.	.	.	.	.	.	.	.	.	.	.	.	.	.	.	.	.	.
!	!	!	!	!LO:DY:rj	!	!	!	!	!	!	!	!LO:TX:a:t=Solo	!	!	!	!	!	!	!	!	!	!	!	!	!	!	!	!	!	!	!	!	!	!	!	!	!	!
(2E\	.	p <	2E\	p	2r	.	(4b\]	<	(8a/L	.	1ryy	2r	.	.	(4B\	-le-	.	4e/)	-son	.	4g#/)	-son	.	1ryy	1ryy	1ryy	1r	.	1r	.	1r	.	1r	.	1r	.	1r	.
.	.	.	.	.	.	.	.	.	8g#/J)	.	.	.	.	.	.	.	.	.	.	.	.	.	.	.	.	.	.	.	.	.	.	.	.	.	.	.	.	.
.	.	.	.	.	.	.	8cc#\L	.	2g#/	.	.	.	.	.	8c#\L	.	<	4r	.	.	4r	.	.	.	.	.	.	.	.	.	.	.	.	.	.	.	.	.
.	.	.	.	.	.	p	8dd#\J	.	.	.	.	.	.	.	8d#\J	.	.	.	.	.	.	.	.	.	.	.	.	.	.	.	.	.	.	.	.	.	.	.
!	!	!	!	!	!	!	!	!	!	!	!	!	!	!LO:HP:a	!	!	!	!	!	!	!	!	!	!	!	!	!	!	!	!	!	!	!	!	!	!	!	!
2C#/)	.	.	2C#/	.	(4G#/	<	4ee\	.	.	.	.	(4G#\	Chri-	<	4e\	.	.	2r	.	.	2r	.	.	.	.	.	.	.	.	.	.	.	.	.	.	.	.	.
.	.	[	.	.	4A#X/	.	4ff#\)	[[	[>4f#/	.	.	4A#X\	-ste	[[	4f#\)	-i-	[	.	.	.	.	.	.	.	.	.	.	.	.	.	.	.	.	.	.	.	.	.
!	!	!	!	!	!	!	!	!	!	!	!	!LO:LB:g=original	!	!	!LO:LB:g=original	!	!	!	!	!	!LO:LB:g=original	!	!	!	!	!	!	!	!	!	!	!	!	!	!	!	!	!
=31	=31	=31	=31	=31	=31	=31	=31	=31	=31	=31	=31	=31	=31	=31	=31	=31	=31	=31	=31	=31	=31	=31	=31	=31	=31	=31	=31	=31	=31	=31	=31	=31	=31	=31	=31	=31	=31	=31
1BB	.	.	1BB	.	4B/)	[	(8ee\L	.	4f#/]	.	1ryy	4B\)	ste	.	4B\	-son	.	4r	.	.	2r	.	.	1ryy	1ryy	1ryy	1r	.	1r	.	1r	.	1r	.	1r	.	1r	.
.	.	.	.	.	.	.	8dd#\J)	.	.	.	.	.	.	.	.	.	.	.	.	.	.	.	.	.	.	.	.	.	.	.	.	.	.	.	.	.	.	.
.	.	.	.	.	2B/	.	(8dd#\L	.	4e/	.	.	(4E\	e-	.	4B\	e-	.	4g#/	e-	.	.	.	.	.	.	.	.	.	.	.	.	.	.	.	.	.	.	.
.	.	.	.	.	.	.	8cc#\J)	.	.	.	.	.	.	.	.	.	.	.	.	.	.	.	.	.	.	.	.	.	.	.	.	.	.	.	.	.	.	.
!	!	!	!	!	!	!	!	!	!	!	!	!	!	!	!	!	!	!	!	!	!	!	!LO:HP:a	!	!	!	!	!	!	!	!	!	!	!	!	!	!	!
.	.	.	.	.	.	.	(8cc#\L	.	4f#/	.	.	4D#\	-le-	.	4B\	-le-	.	4f#/	-le-	.	4b\	Chri-	<	.	.	.	.	.	.	.	.	.	.	.	.	.	.	.
.	.	.	.	.	.	.	8b\J)	.	.	.	.	.	.	.	.	.	.	.	.	.	.	.	.	.	.	.	.	.	.	.	.	.	.	.	.	.	.	.
.	.	.	.	.	(4F#/	.	(8b\L	.	4d#/	.	.	4F#\	-i-	.	4B\	-i-	.	4an/	-i-	.	8b\	-ste	.	.	.	.	.	.	.	.	.	.	.	.	.	.	.	.
.	.	.	.	.	.	.	8a\J)	.	.	.	.	.	.	.	.	.	.	.	.	.	8b\	e-	[[	.	.	.	.	.	.	.	.	.	.	.	.	.	.	.
!	!	!	!LO:LB:g=original	!	!	!	!LO:LB:g=original	!	!	!	!	!	!	!	!	!	!	!	!	!	!	!	!	!	!	!	!	!	!	!	!	!	!	!	!	!	!	!
=32	=32	=32	=32	=32	=32	=32	=32	=32	=32	=32	=32	=32	=32	=32	=32	=32	=32	=32	=32	=32	=32	=32	=32	=32	=32	=32	=32	=32	=32	=32	=32	=32	=32	=32	=32	=32	=32	=32
!LO:TX:a:t=Cello&colon;	!	!	!LO:TX:a:t=2	!	!	!	!	!	!	!	!	!	!	!	!	!	!	!	!	!	!	!	!	!	!	!	!	!	!	!	!	!	!	!	!	!	!	!
.	.	.	.	.	.	.	8qb/	pp	.	.	.	.	.	.	.	.	.	.	.	.	.	.	.	.	.	.	.	.	.	.	.	.	.	.	.	.	.	.
2E/	.	.	0r	.	4G#/)	.	8a/L	.	4e/	.	1ryy	4E\)	-son	.	4B\	-son	.	4g#/	-son	.	(4gg#\	-le-	.	1ryy	1ryy	1ryy	1r	.	1r	.	1r	.	1r	.	1r	.	1r	.
.	.	.	.	.	.	.	8g#/J	.	.	.	.	.	.	.	.	.	.	.	.	.	.	.	.	.	.	.	.	.	.	.	.	.	.	.	.	.	.	.
.	.	.	.	.	4e\	p	4g#/	.	4b\	pp	.	4r	.	.	4r	.	.	4r	.	.	8ff#\L	.	.	.	.	.	.	.	.	.	.	.	.	.	.	.	.	.
.	.	.	.	.	.	.	.	.	.	.	.	.	.	.	.	.	.	.	.	.	8ee\J	.	.	.	.	.	.	.	.	.	.	.	.	.	.	.	.	.
2GG#/	.	.	.	.	4r	.	4r	.	4r	.	.	2r	.	.	2r	.	.	2r	.	.	8dd#\L	.	.	.	.	.	.	.	.	.	.	.	.	.	.	.	.	.
.	.	.	.	.	.	.	.	.	.	.	.	.	.	.	.	.	.	.	.	.	8ff#\	.	.	.	.	.	.	.	.	.	.	.	.	.	.	.	.	.
!	!	!	!	!	!LO:TX:t=P:problem:początek łuku na dole	!	!	!LO:HP:a	!	!LO:HP:a	!	!	!	!	!	!	!	!	!	!	!	!	!	!	!	!	!	!	!	!	!	!	!	!	!	!	!	!
.	.	.	.	.	(<4B#X/	.	[4e/	<	(4b#X\	<	.	.	.	.	.	.	.	.	.	.	8ee\	.	.	.	.	.	.	.	.	.	.	.	.	.	.	.	.	.
.	.	.	.	.	.	.	.	.	.	.	.	.	.	.	.	.	.	.	.	.	8b#X\J	.	.	.	.	.	.	.	.	.	.	.	.	.	.	.	.	.
!	!	!	!	!	!LO:LB:g=original	!	!	!	!	!	!	!	!	!	!	!	!	!	!	!	!	!	!	!	!	!	!	!	!	!	!	!	!	!	!	!	!	!
=33	=33	=33	=33	=33	=33	=33	=33	=33	=33	=33	=33	=33	=33	=33	=33	=33	=33	=33	=33	=33	=33	=33	=33	=33	=33	=33	=33	=33	=33	=33	=33	=33	=33	=33	=33	=33	=33	=33
!	!	!	!	!	!LO:TX:t=P:problem:koniec łuku na górze	!LO:HP:a	!	!	!	!	!	!LO:TX:a:t=1.	!	!	!LO:TX:a:t=1.	!	!	!LO:TX:a:t=1.	!	!	!	!	!	!	!	!	!	!	!	!	!	!	!	!	!	!	!	!
1AA	.	.	.	.	4c#\)	<	4e/]	.	4cc#\	.	1ryy	1r	.	.	1r	.	.	1r	.	.	8dd#\L	.	.	1ryy	1ryy	1ryy	1r	.	1r	.	1r	.	1r	.	1r	.	1r	.
.	.	.	.	.	.	.	.	.	.	.	.	.	.	.	.	.	.	.	.	.	8cc#\	.	.	.	.	.	.	.	.	.	.	.	.	.	.	.	.	.
.	.	.	.	.	2c#\	.	(4e#X/	.	2cc#\)	.	.	.	.	.	.	.	.	.	.	.	8g#\	.	.	.	.	.	.	.	.	.	.	.	.	.	.	.	.	.
.	.	.	.	.	.	.	.	.	.	.	.	.	.	.	.	.	.	.	.	.	8bn\J	.	.	.	.	.	.	.	.	.	.	.	.	.	.	.	.	.
.	.	.	.	.	.	.	4f#/	[	.	[	.	.	.	.	.	.	.	.	.	.	8a/L	.	.	.	.	.	.	.	.	.	.	.	.	.	.	.	.	.
!	!	!	!	!	!	!	!	!LO:DY:a	!	!	!	!	!	!	!	!	!	!	!	!	!	!	!	!	!	!	!	!	!	!	!	!	!	!	!	!	!	!
.	.	.	.	.	.	.	.	pp	.	.	.	.	.	.	.	.	.	.	.	.	8e#X/	.	.	.	.	.	.	.	.	.	.	.	.	.	.	.	.	.
.	.	.	.	.	4f#\	[ p	4c#/)	.	4a/	pp	.	.	.	.	.	.	.	.	.	.	8f#/	.	.	.	.	.	.	.	.	.	.	.	.	.	.	.	.	.
.	.	.	.	.	.	.	.	.	.	.	.	.	.	.	.	.	.	.	.	.	8cc#/J)	-i-	.	.	.	.	.	.	.	.	.	.	.	.	.	.	.	.
!	!	!	!	!	!	!	!	!	!	!	!	!	!	!	!	!	!	!LO:LB:g=original	!	!	!	!	!	!	!	!	!	!	!	!	!	!	!	!	!	!	!	!
=34	=34	=34	=34	=34	=34	=34	=34	=34	=34	=34	=34	=34	=34	=34	=34	=34	=34	=34	=34	=34	=34	=34	=34	=34	=34	=34	=34	=34	=34	=34	=34	=34	=34	=34	=34	=34	=34	=34
4BB/	.	.	2r	.	4r	.	4r	.	4r	.	1ryy	4r	.	.	2r	.	.	4r	.	.	4e/	-son	.	1ryy	1ryy	1ryy	1r	.	1r	.	1r	.	1r	.	1r	.	1r	.
!LO:TX:a:t=Org&colon;	!	!	!	!	!	!	!	!	!	!	!	!	!	!	!	!	!	!	!	!	!	!	!	!	!	!	!	!	!	!	!	!	!	!	!	!	!	!
4r	.	.	.	.	4B/	.	4e/	.	4g#/	.	.	(4G#\	e-	.	.	.	.	(>4e/	e-	.	4r	.	.	.	.	.	.	.	.	.	.	.	.	.	.	.	.	.
(2BB/	.	.	(2BB/	.	4r	.	4r	.	4r	.	.	4F#\	-le-	.	4B\	Chri-	.	4d#/	-le-	.	2r	.	.	.	.	.	.	.	.	.	.	.	.	.	.	.	.	.
.	.	.	.	.	4A/	.	4d#/	.	4f#/	.	.	4A\	-i-	.	8B\	-ste	.	4f#/	-i-	.	.	.	.	.	.	.	.	.	.	.	.	.	.	.	.	.	.	.
.	.	.	.	.	.	.	.	.	.	.	.	.	.	.	8B\	e-	.	.	.	.	.	.	.	.	.	.	.	.	.	.	.	.	.	.	.	.	.	.
=35	=35	=35	=35	=35	=35	=35	=35	=35	=35	=35	=35	=35	=35	=35	=35	=35	=35	=35	=35	=35	=35	=35	=35	=35	=35	=35	=35	=35	=35	=35	=35	=35	=35	=35	=35	=35	=35	=35
!	!	!	!	!	!	!	!	!	!	!	!	!	!	!	!	!	!	!	!	!	!LO:TX:a:t=2	!	!	!	!	!	!	!	!	!	!	!	!	!	!	!	!	!
2E\	.	.	2E\	.	2.G#/	.	4r	.	4r	.	1ryy	4G#\)	-son	.	4g#\	-le-	.	4e/)	-son	.	0r	.	.	1ryy	1ryy	1ryy	1r	.	1r	.	1r	.	1r	.	1r	.	1r	.
.	.	.	.	.	.	.	(>4G#/	.	(4g#\	.	.	4r	.	.	(8f#\L	.	.	4r	.	.	.	.	.	.	.	.	.	.	.	.	.	.	.	.	.	.	.	.
.	.	.	.	.	.	.	.	.	.	<	.	.	.	.	8e\J	.	.	.	.	.	.	.	.	.	.	.	.	.	.	.	.	.	.	.	.	.	.	.
2GG#/)	.	.	2GG#/	.	.	.	4B/	.	4b\	.	.	2r	.	.	8d#\L	.	.	2r	.	.	.	.	.	.	.	.	.	.	.	.	.	.	.	.	.	.	.	.
.	.	.	.	.	.	.	.	.	.	.	.	.	.	.	8f#\	.	.	.	.	.	.	.	.	.	.	.	.	.	.	.	.	.	.	.	.	.	.	.
.	.	.	.	.	[>4E/	.	4B#X/	.	4b#X\)	.	.	.	.	.	8e\	.	.	.	.	.	.	.	.	.	.	.	.	.	.	.	.	.	.	.	.	.	.	.
.	.	.	.	.	.	.	.	.	.	[	.	.	.	.	8B#X\J	.	.	.	.	.	.	.	.	.	.	.	.	.	.	.	.	.	.	.	.	.	.	.
!LO:LB:g=original	!	!	!	!	!	!	!	!	!LO:LB:g=original	!	!	!	!	!	!	!	!	!	!	!	!	!	!	!	!	!	!	!	!	!	!	!	!	!	!	!	!	!
=36	=36	=36	=36	=36	=36	=36	=36	=36	=36	=36	=36	=36	=36	=36	=36	=36	=36	=36	=36	=36	=36	=36	=36	=36	=36	=36	=36	=36	=36	=36	=36	=36	=36	=36	=36	=36	=36	=36
!	!	!	!	!	!	!LO:HP:a	!	!	!	!	!	!LO:TX:a:t=1.	!	!	!	!	!	!LO:TX:a:t=1.	!	!	!	!	!	!	!	!	!	!	!	!	!	!	!	!	!	!	!	!
1AA	.	.	1AA)	.	4E/]	<	4c#/)	.	4cc#\	.	1ryy	1r	.	.	8d#\L	.	.	1r	.	.	.	.	.	1ryy	1ryy	1ryy	1r	.	1r	.	1r	.	1r	.	1r	.	1r	.
.	.	.	.	.	.	.	.	.	.	.	.	.	.	.	8c#\	.	.	.	.	.	.	.	.	.	.	.	.	.	.	.	.	.	.	.	.	.	.	.
!	!	!	!	!	!	!	!LO:TX:b:t=P:problem:diminuendolike accent	!	!LO:TX:a:t=P:problem:diminuendolike accent	!	!	!	!	!	!	!	!	!	!	!	!	!	!	!	!	!	!	!	!	!	!	!	!	!	!	!	!	!
.	.	.	.	.	4E#X/	.	2c#^</	.	(2cc#^\	.	.	.	.	.	8G#\	.	.	.	.	.	.	.	.	.	.	.	.	.	.	.	.	.	.	.	.	.	.	.
.	.	.	.	.	.	.	.	.	.	.	.	.	.	.	8Bn\J	.	.	.	.	.	.	.	.	.	.	.	.	.	.	.	.	.	.	.	.	.	.	.
.	.	.	.	.	4F#/	.	.	.	.	.	.	.	.	.	8A\L	.	.	.	.	.	.	.	.	.	.	.	.	.	.	.	.	.	.	.	.	.	.	.
.	.	.	.	.	.	.	.	.	.	.	.	.	.	.	8E#X\	.	.	.	.	.	.	.	.	.	.	.	.	.	.	.	.	.	.	.	.	.	.	.
.	.	.	.	.	4C#/	[	4f#/	.	4a/	.	.	.	.	.	8F#\	.	.	.	.	.	.	.	.	.	.	.	.	.	.	.	.	.	.	.	.	.	.	.
!	!	!	!	!	!	!	!	!	!	!	!	!	!	!	!LO:SIC:v:l:s=-i-	!	!	!	!	!	!	!	!	!	!	!	!	!	!	!	!	!	!	!	!	!	!	!
.	.	.	.	.	.	.	.	.	.	.	.	.	.	.	8c#\J)	.	.	.	.	.	.	.	.	.	.	.	.	.	.	.	.	.	.	.	.	.	.	.
!	!	!	!	!	!	!	!	!	!	!	!	!	!	!	!LO:LB:g=original	!	!	!	!	!	!LO:LB:g=original	!	!	!	!	!	!	!	!	!	!	!	!	!	!	!	!	!
=37	=37	=37	=37	=37	=37	=37	=37	=37	=37	=37	=37	=37	=37	=37	=37	=37	=37	=37	=37	=37	=37	=37	=37	=37	=37	=37	=37	=37	=37	=37	=37	=37	=37	=37	=37	=37	=37	=37
4BB/	.	.	4BB/	.	4r	pp	(>2.e/	pp	(>2g#/)	pp	1ryy	4r	.	pp	4En/	-son	.	4r	.	.	4r	.	pp	1ryy	1ryy	1ryy	1r	.	1r	.	1r	.	1r	.	1r	.	1r	.
!LO:TX:a:t=Cello.	!	!	!	!	!	!	!	!	!	!	!	!	!	!	!	!	!	!	!	!LO:DY:a	!	!	!	!	!	!	!	!	!	!	!	!	!	!	!	!	!	!
(4C#/	.	pp	4r	.	(4G#/	.	.	.	.	.	.	(>4C#/	e-	.	4r	.	.	4e/	e-	pp	4g#/	e-	.	.	.	.	.	.	.	.	.	.	.	.	.	.	.	.
4AA/	.	.	2r	.	4c#/	.	.	.	[2f#/	.	.	4AA/	-le-	.	2r	.	.	4e/	-le-	.	4f#/	-le-	.	.	.	.	.	.	.	.	.	.	.	.	.	.	.	.
4BB/)	.	.	.	.	4B/)	.	(4d#/)	.	.	.	.	4BB/)	-i-	.	.	.	.	4d#/	-i-	.	4f#/	-i-	.	.	.	.	.	.	.	.	.	.	.	.	.	.	.	.
!	!	!	!	!	!	!	!	!	!	!	!	!LO:LB:g=original	!	!	!	!	!	!	!	!	!	!	!	!	!	!	!	!	!	!	!	!	!	!	!	!	!	!
=38	=38	=38	=38	=38	=38	=38	=38	=38	=38	=38	=38	=38	=38	=38	=38	=38	=38	=38	=38	=38	=38	=38	=38	=38	=38	=38	=38	=38	=38	=38	=38	=38	=38	=38	=38	=38	=38	=38
!	!	!	!LO:TX:a:t=3	!	!	!LO:HP:a	!	!	!	!	!	!	!	!LO:HP:a	!	!	!LO:DY:a	!	!	!LO:HP:a	!	!	!	!	!	!	!	!	!	!	!	!	!	!	!	!	!	!
(>1AA#X	.	<	0r	.	[1c# 1C#	<	4e/)	.	4f#/])	.	1ryy	2.AA#X/	-son	<	4r	.	p	[>1e	-son	<	[>1f#	-son	.	1ryy	1ryy	1ryy	1r	.	1r	.	1r	.	1r	.	1r	.	1r	.
!	!	!	!	!	!	!	!	!	!LO:TX:b:t=P:problem:diminuendolike accent	!	!	!	!	!	!	!	!LO:HP:a	!	!	!	!	!	!	!	!	!	!	!	!	!	!	!	!	!	!	!	!	!
.	.	.	.	.	.	.	2ee^<\	.	2ff#^<\	.	.	.	.	.	4c#\	e-	<	.	.	.	.	.	.	.	.	.	.	.	.	.	.	.	.	.	.	.	.	.
.	.	.	.	.	.	.	.	.	.	.	.	.	.	.	4c#\	-le-	.	.	.	.	.	.	.	.	.	.	.	.	.	.	.	.	.	.	.	.	.	.
.	.	[	.	.	.	[	4e/	.	4f#/	.	.	4AA#/	e-	[	4c#\	-i-	[	.	.	[	.	.	.	.	.	.	.	.	.	.	.	.	.	.	.	.	.	.
!	!	!	!	!	!	!	!LO:LB:g=original	!	!	!	!	!	!	!	!	!	!	!	!	!	!	!	!	!	!	!	!	!	!	!	!	!	!	!	!	!	!	!
=39	=39	=39	=39	=39	=39	=39	=39	=39	=39	=39	=39	=39	=39	=39	=39	=39	=39	=39	=39	=39	=39	=39	=39	=39	=39	=39	=39	=39	=39	=39	=39	=39	=39	=39	=39	=39	=39	=39
1BB)	.	.	.	.	(4c#/]	.	4e/	.	4f#/	.	1ryy	2.BB/	-le-	.	4c#\	-son	.	4e/]	.	.	4f#/]	.	.	1ryy	1ryy	1ryy	1r	.	1r	.	1r	.	1r	.	1r	.	1r	.
.	.	.	.	.	8B/L	.	8d#/L	.	2b/	.	.	.	.	.	4B\	e-	.	8d#/L	e-	.	4f#/	e-	.	.	.	.	.	.	.	.	.	.	.	.	.	.	.	.
.	.	.	.	.	8A#X/J	.	8c#/J	.	.	.	.	.	.	.	.	.	.	8c#/J	.	.	.	.	.	.	.	.	.	.	.	.	.	.	.	.	.	.	.	.
.	.	.	.	.	4B/)	.	4B/	.	.	.	.	.	.	.	4B\	-le-	.	4d#/	-le-	.	(>4.f#/	-le-	.	.	.	.	.	.	.	.	.	.	.	.	.	.	.	.
.	.	.	.	.	4F#/	.	4A/	.	(>4d#/	.	.	4BB/	-i-	.	4A\	-i-	.	4B/	-i-	.	.	.	.	.	.	.	.	.	.	.	.	.	.	.	.	.	.	.
.	.	.	.	.	.	.	.	.	.	.	.	.	.	.	.	.	.	.	.	.	8g#/)	-i-	.	.	.	.	.	.	.	.	.	.	.	.	.	.	.	.
!	!	!	!	!	!LO:LB:g=original	!	!	!	!	!	!	!	!	!	!	!	!	!	!	!	!	!	!	!	!	!	!	!	!	!	!	!	!	!	!	!	!	!
=40	=40	=40	=40	=40	=40	=40	=40	=40	=40	=40	=40	=40	=40	=40	=40	=40	=40	=40	=40	=40	=40	=40	=40	=40	=40	=40	=40	=40	=40	=40	=40	=40	=40	=40	=40	=40	=40	=40
*	*	*	*	*	*	*	*	*	*	*	*	*	*	*	*	*	*^	*	*	*	*	*	*	*	*	*	*	*	*	*	*	*	*	*	*	*	*	*
!	!	!	!	!	!	!	!LO:TX:t=cres_:problem:dynamics with extention lines	!LO:HP:a:t=cres:ext:ud	!	!LO:HP:a:t=cres	!	!	!	!	!	!	!	!	!	!	!	!	!	!	!	!	!	!	!	!	!	!	!	!	!	!	!	!	!
4EE/	.	.	1r	.	4G#/	.	8G#/	<	8e/)	<	1ryy	4EE/	-son	.	4G#/	-son	.	.	4B/	-son	.	4e/	-son	.	1ryy	1ryy	1ryy	1r	.	1r	.	1r	.	1r	.	1r	.	1r	.
.	.	.	.	.	.	.	8G#/L	.	8G#/L	.	.	.	.	.	.	.	.	.	.	.	.	.	.	.	.	.	.	.	.	.	.	.	.	.	.	.	.	.	.
4r	.	.	.	.	4r	.	8B/	.	8B/	.	.	4r	.	.	4r	.	.	.	4r	.	.	4r	.	.	.	.	.	.	.	.	.	.	.	.	.	.	.	.	.
.	.	.	.	.	.	.	8e/J	.	8e/J	.	.	.	.	.	.	.	.	.	.	.	.	.	.	.	.	.	.	.	.	.	.	.	.	.	.	.	.	.	.
!LO:TX:a:t=Org&colon;	!	!	!	!	!	!	!	!	!	!	!	!	!	!	!	!	!	!LO:DY:a	!	!	!	!	!	!	!	!	!	!	!	!	!	!	!	!	!	!	!	!	!
2r	.	.	.	.	2r	.	8g#/L	.	8g#/L	.	.	2r	.	.	2r	.	f	f	2r	.	.	2r	.	.	.	.	.	.	.	.	.	.	.	.	.	.	.	.	.
.	.	.	.	.	.	.	8B/	.	8B/	.	.	.	.	.	.	.	.	.	.	.	.	.	.	.	.	.	.	.	.	.	.	.	.	.	.	.	.	.	.
.	.	.	.	.	.	.	8e/	.	8e/	.	.	.	.	.	.	.	.	.	.	.	.	.	.	.	.	.	.	.	.	.	.	.	.	.	.	.	.	.	.
!	!	!	!	!	!	!	!	!	!	!	!	!LO:TX:t=P:problem:kreska taktowa podwójna	!	!	!LO:TX:t=P:problem:kreska taktowa podwójna	!	!	!	!	!	!	!LO:TX:t=P:problem:kreska taktowa podwójna	!	!	!	!	!	!	!	!	!	!	!	!	!	!	!	!	!
.	.	.	.	.	.	.	8g#/J	[	8g#/J	.	.	.	.	.	.	.	.	.	.	.	.	.	.	f	.	.	.	.	.	.	.	.	.	.	.	.	.	.	.
!	!	!	!	!	!	!	!	!	!	!	!	!	!	!	!	!	!	!	!LO:LB:g=original	!	!	!	!	!	!	!	!	!	!	!	!	!	!	!	!	!	!	!	!
*	*	*	*	*	*	*	*	*	*	*	*	*	*	*	*	*	*v	*v	*	*	*	*	*	*	*	*	*	*	*	*	*	*	*	*	*	*	*	*	*
=41	=41	=41	=41	=41	=41	=41	=41	=41	=41	=41	=41	=41	=41	=41	=41	=41	=41	=41	=41	=41	=41	=41	=41	=41	=41	=41	=41	=41	=41	=41	=41	=41	=41	=41	=41	=41	=41	=41
*	*	*	*	*	*	*	*	*	*	*	*	*	*	*	*	*	*	*	*	*	*	*	*	*	*	*	*	*	*	*	*	*	*2\right	*	*	*	*2\right	*
!	!	!	!	!	!	!LO:DY:rj	!	!	!	!	!	!LO:TX:a:t=Tutti.	!	!	!LO:TX:a:t=tutti	!	!	!LO:TX:a:t=Tutti	!	!	!LO:TX:a:t=Tutti	!	!	!	!	!	!	!LO:DY:rj	!	!	!	!LO:DY:t=f	!	!	!	!	!	!
4E\	5	f	4E\	f	4G# 4E/	f	8b/L	f	8b/L	f	1ryy	4r	.	f	2.G#/	Ky-	.	4r	.	f	2.b\	Ky-	.	1ryy	1ryy	1ryy	[>1E	f	[1e	f	(1g#	f	2.b\	f	[1ee	f	(2.bb\	f <
.	.	.	.	.	.	.	8B/	.	8B/	.	.	.	.	.	.	.	.	.	.	.	.	.	.	.	.	.	.	.	.	.	.	.	.	.	.	.	.	.
2E\	.	.	2E\	.	2G# 2E/	.	8e/	.	8e/	.	.	2E\	Ky-	.	.	.	.	2e/	Ky-	.	.	.	.	.	.	.	.	.	.	.	.	.	.	.	.	.	.	.
.	.	.	.	.	.	.	8g#/J	.	8g#/J	.	.	.	.	.	.	.	.	.	.	.	.	.	.	.	.	.	.	.	.	.	.	.	.	.	.	.	.	.
.	.	.	.	.	.	.	8b/L	.	8b/L	.	.	.	.	.	.	.	.	.	.	.	.	.	.	.	.	.	.	.	.	.	.	.	.	.	.	.	.	.
.	.	.	.	.	.	.	8B/	.	8B/	.	.	.	.	.	.	.	.	.	.	.	.	.	.	.	.	.	.	.	.	.	.	.	.	.	.	.	.	.
4E\	+5r	.	4E\	.	4G# 4E/	.	8b#X/	.	8b#X/	.	.	4E\	-ri-	.	4G#/	-ri-	.	4e/	-ri-	.	4b#X\	-ri-	.	.	.	.	.	.	.	.	.	.	4b#X\	.	.	.	4bb#X\	.
.	.	.	.	.	.	.	8B#X/J	.	8B#X/J	.	.	.	.	.	.	.	.	.	.	.	.	.	.	.	.	.	.	.	.	.	.	.	.	.	.	.	.	[
!	!	!	!	!	!	!	!	!	!LO:LB:g=original	!	!	!	!	!	!	!	!	!	!	!	!	!	!	!	!	!	!	!	!	!	!	!	!	!	!	!	!	!
=42	=42	=42	=42	=42	=42	=42	=42	=42	=42	=42	=42	=42	=42	=42	=42	=42	=42	=42	=42	=42	=42	=42	=42	=42	=42	=42	=42	=42	=42	=42	=42	=42	=42	=42	=42	=42	=42	=42
2AA/	.	.	2AA/	.	8A 8E/	.	8cc#/L	.	8cc#/L	.	1ryy	2AA/	-e	.	2A\	-e	.	2e/	-e	.	2cc#\	-e	.	1ryy	1ryy	1ryy	4E/]	.	4e\]	.	4a\)	.	4cc#\	.	4ee\]	.	4ccc#\)	.
.	.	.	.	.	8C#/L	.	8c#/	.	8c#/	.	.	.	.	.	.	.	.	.	.	.	.	.	.	.	.	.	.	.	.	.	.	.	.	.	.	.	.	.
.	.	.	.	.	8E/	.	8e/	.	8e/	.	.	.	.	.	.	.	.	.	.	.	.	.	.	.	.	.	4r	.	4r	.	4r	.	4r	.	4r	.	4r	.
.	.	.	.	.	8A/J	.	8a/J	.	8a/J	.	.	.	.	.	.	.	.	.	.	.	.	.	.	.	.	.	.	.	.	.	.	.	.	.	.	.	.	.
2r	.	.	2r	.	8c#/L	.	8cc#/L	.	8cc#/L	.	.	2r	.	.	2r	.	.	2r	.	.	2r	.	.	.	.	.	2r	.	2r	.	2r	.	2r	.	2r	.	2r	.
.	.	.	.	.	8A/	.	8a/	.	8a/	.	.	.	.	.	.	.	.	.	.	.	.	.	.	.	.	.	.	.	.	.	.	.	.	.	.	.	.	.
.	.	.	.	.	8G#/	.	8g#/	.	8g#/	.	.	.	.	.	.	.	.	.	.	.	.	.	.	.	.	.	.	.	.	.	.	.	.	.	.	.	.	.
.	.	.	.	.	8F#/J	.	8f#/J	.	8f#/J	.	.	.	.	.	.	.	.	.	.	.	.	.	.	.	.	.	.	.	.	.	.	.	.	.	.	.	.	.
=43	=43	=43	=43	=43	=43	=43	=43	=43	=43	=43	=43	=43	=43	=43	=43	=43	=43	=43	=43	=43	=43	=43	=43	=43	=43	=43	=43	=43	=43	=43	=43	=43	=43	=43	=43	=43	=43	=43
!	!	!	!	!	!	!	!	!	!	!	!	!	!	!	!	!	!	!	!	!LO:HP:a	!	!	!	!	!	!	!	!	!	!	!	!	!	!	!	!	!	!
4C#/	#	.	4C#/	.	4G# 4E#X/	.	8e#X/L	.	8e#X/L	.	1ryy	4r	.	.	4r	.	.	2.e#X/	Ky-	<	2.g#/	Ky-	.	1ryy	1ryy	1ryy	(1G#	.	1g#	.	(1g#	.	1gg#	.	1ee#X	.	[1ccc#	<
.	.	.	.	.	.	.	8c#/	.	8c#/	.	.	.	.	.	.	.	.	.	.	.	.	.	.	.	.	.	.	.	.	.	.	.	.	.	.	.	.	.
2C#/	.	.	2C#/	.	2G# 2E#/	.	8e#/	.	8e#/	.	.	2C#/	Ky-	.	2G#\	Ky-	.	.	.	.	.	.	.	.	.	.	.	.	.	.	.	.	.	.	.	.	.	.
.	.	.	.	.	.	.	8g#/J	.	8g#/J	.	.	.	.	.	.	.	.	.	.	.	.	.	.	.	.	.	.	.	.	.	.	.	.	.	.	.	.	.
.	.	.	.	.	.	.	8cc#/L	.	8cc#/L	.	.	.	.	.	.	.	.	.	.	.	.	.	.	.	.	.	.	.	.	.	.	.	.	.	.	.	.	.
.	.	.	.	.	.	.	8c#/	.	8c#/	.	.	.	.	.	.	.	.	.	.	.	.	.	.	.	.	.	.	.	.	.	.	.	.	.	.	.	.	.
4C#/	.	.	4C#/	.	4G# 4E#/	.	8g#/	.	8g#/	.	.	4C#/	-ri-	.	4c#\	-ri-	.	4e#/	-ri-	[[	4g#/	-ri-	.	.	.	.	.	.	.	.	.	.	.	.	.	.	.	.
.	.	.	.	.	.	.	8G#/J	.	8G#/J	.	.	.	.	.	.	.	.	.	.	.	.	.	.	.	.	.	.	.	.	.	.	.	.	.	.	.	.	[
!	!	!	!	!	!	!	!	!	!	!	!	!	!	!	!LO:LB:g=original	!	!	!	!	!	!	!	!	!	!	!	!	!	!	!	!	!	!	!	!	!	!	!
=44	=44	=44	=44	=44	=44	=44	=44	=44	=44	=44	=44	=44	=44	=44	=44	=44	=44	=44	=44	=44	=44	=44	=44	=44	=44	=44	=44	=44	=44	=44	=44	=44	=44	=44	=44	=44	=44	=44
2FF#/	n	.	2F#\	.	4A 4F#/	.	8a/L	.	8a/L	.	1ryy	2F#\	-e	.	2c#\	-e	.	2f#/	-e	.	2a/	-e	.	1ryy	1ryy	1ryy	4f#\)	.	4f#\	.	4a\)	.	4aa\	.	4ff#\	.	4ccc#\]	.
.	.	.	.	.	.	.	8A/	.	8A/	.	.	.	.	.	.	.	.	.	.	.	.	.	.	.	.	.	.	.	.	.	.	.	.	.	.	.	.	.
.	.	.	.	.	8C#/L	.	8c#/	.	8c#/	.	.	.	.	.	.	.	.	.	.	.	.	.	.	.	.	.	4r	.	4r	.	4r	.	4r	.	4r	.	4r	.
.	.	.	.	.	8F#/J	.	8f#/J	.	8f#/J	.	.	.	.	.	.	.	.	.	.	.	.	.	.	.	.	.	.	.	.	.	.	.	.	.	.	.	.	.
!	!	!	!	!	!	!	!LO:LB:g=original	!	!	!	!	!	!	!	!	!	!	!	!	!	!	!	!	!	!	!	!	!	!	!	!	!	!	!	!	!	!	!
2r	.	.	2r	.	8A/L	.	8a/L	.	8a/L	.	.	2r	.	.	2r	.	.	2r	.	.	2r	.	.	.	.	.	2r	.	2r	.	2r	.	2r	.	2r	.	2r	.
.	.	.	.	.	8C#/	.	8c#/	.	8c#/	.	.	.	.	.	.	.	.	.	.	.	.	.	.	.	.	.	.	.	.	.	.	.	.	.	.	.	.	.
.	.	.	.	.	8F#/	.	8f#/	.	8f#/	.	.	.	.	.	.	.	.	.	.	.	.	.	.	.	.	.	.	.	.	.	.	.	.	.	.	.	.	.
.	.	.	.	.	8A/J	.	8a/J	.	8a/J	.	.	.	.	.	.	.	.	.	.	.	.	.	.	.	.	.	.	.	.	.	.	.	.	.	.	.	.	.
!LO:LB:g=original	!	!	!LO:LB:g=original	!	!	!	!	!	!	!	!	!LO:LB:g=original	!	!	!	!	!	!	!	!	!LO:LB:g=original	!	!	!	!	!	!	!	!	!	!	!	!	!	!	!	!	!
=45	=45	=45	=45	=45	=45	=45	=45	=45	=45	=45	=45	=45	=45	=45	=45	=45	=45	=45	=45	=45	=45	=45	=45	=45	=45	=45	=45	=45	=45	=45	=45	=45	=45	=45	=45	=45	=45	=45
(2F#\	5	.	2F#\	.	4c# 4C#/	.	8cc#/L	.	8cc#/L	.	1ryy	(2F#\	Ky-	.	2.A\	Ky-	.	4r	.	.	2.cc#\	Ky-	.	1ryy	1ryy	1ryy	[1f#	.	[1a	.	[1ff#	.	2.cc#\	.	[1aa	.	(2.ccc#\	<
.	.	.	.	.	.	.	8c#/	.	8c#/	.	.	.	.	.	.	.	.	.	.	.	.	.	.	.	.	.	.	.	.	.	.	.	.	.	.	.	.	.
.	.	.	.	.	2c#\	.	8f#/	.	8f#/	.	.	.	.	.	.	.	.	2f#/	Ky-	.	.	.	.	.	.	.	.	.	.	.	.	.	.	.	.	.	.	.
.	.	.	.	.	.	.	8a/J	.	8a/J	.	.	.	.	.	.	.	.	.	.	.	.	.	.	.	.	.	.	.	.	.	.	.	.	.	.	.	.	.
4E\)	.	.	2E\	.	.	.	8cc#/L	.	8cc#/L	.	.	4E\)	.	.	.	.	.	.	.	.	.	.	.	.	.	.	.	.	.	.	.	.	.	.	.	.	.	.
.	.	.	.	.	.	.	8c#/	.	8c#/	.	.	.	.	.	.	.	.	.	.	.	.	.	.	.	.	.	.	.	.	.	.	.	.	.	.	.	.	.
4E\	n6	.	.	.	4cn\	.	8ccn/	.	8ccn/	.	.	4E\	-ri-	.	4A\	-ri-	.	4f#/	-ri-	.	4ccn\	-ri-	.	.	.	.	.	.	.	.	.	.	4ccX\	.	.	.	4cccn\)	[
.	.	.	.	.	.	.	8cn/J	.	8cn/J	.	.	.	.	.	.	.	.	.	.	.	.	.	.	.	.	.	.	.	.	.	.	.	.	.	.	.	.	.
!	!	!	!	!	!LO:LB:g=original	!	!	!	!	!	!	!	!	!	!	!	!	!	!	!	!	!	!	!	!	!	!	!	!	!	!	!	!	!	!	!	!	!
=46	=46	=46	=46	=46	=46	=46	=46	=46	=46	=46	=46	=46	=46	=46	=46	=46	=46	=46	=46	=46	=46	=46	=46	=46	=46	=46	=46	=46	=46	=46	=46	=46	=46	=46	=46	=46	=46	=46
*	*	*	*	*	*	*	*	*	*	*	*	*	*	*	*	*	*	*	*	*	*	*	*	*	*	*	*2\right	*	*2\right	*	*2\right	*	*	*	*2\right	*	*	*
2D#\	6 5	.	2D#\	.	8B/L	.	8b/L	.	8b/L	.	1ryy	2D#\	-e	.	2A\	-e	.	2f#/	-e	.	2b\	-e	.	1ryy	1ryy	1ryy	2f#\]	.	2a\]	.	(2ff#\]	.	1b	.	2aa\]	.	(2bb\	.
.	.	.	.	.	8f#/	.	8ff#/	.	8ff#/	.	.	.	.	.	.	.	.	.	.	.	.	.	.	.	.	.	.	.	.	.	.	.	.	.	.	.	.	.
.	.	.	.	.	8d#/	.	8dd#/	.	8dd#/	.	.	.	.	.	.	.	.	.	.	.	.	.	.	.	.	.	.	.	.	.	.	.	.	.	.	.	.	.
.	.	.	.	.	8A/J	.	8a/J	.	8a/J	.	.	.	.	.	.	.	.	.	.	.	.	.	.	.	.	.	.	.	.	.	.	.	.	.	.	.	.	.
2E\	.	.	2E\	.	8G#/L	.	8g#/L	.	8g#/L	.	.	2E\	e-	.	2G#\	e-	.	2e/	e-	.	(4ee\	e-	.	.	.	.	2e\	.	2g#\	.	2ee\)	.	.	.	2gg#\	.	4eee\	.
.	.	.	.	.	8e/	.	8ee/	.	8ee/	.	.	.	.	.	.	.	.	.	.	.	.	.	.	.	.	.	.	.	.	.	.	.	.	.	.	.	.	.
.	.	.	.	.	8B/	.	8b/	.	8b/	.	.	.	.	.	.	.	.	.	.	.	4g#/)	.	.	.	.	.	.	.	.	.	.	.	.	.	.	.	4gg#\	.
.	.	.	.	.	8G#/J	.	8g#/J	.	8g#/J	.	.	.	.	.	.	.	.	.	.	.	.	.	.	.	.	.	.	.	.	.	.	.	.	.	.	.	.	.
!	!	!	!	!	!	!	!	!	!LO:LB:g=original	!	!	!	!	!	!	!	!	!	!	!	!	!	!	!	!	!	!	!	!	!	!	!	!	!	!	!	!LO:LB:g=original	!
=47	=47	=47	=47	=47	=47	=47	=47	=47	=47	=47	=47	=47	=47	=47	=47	=47	=47	=47	=47	=47	=47	=47	=47	=47	=47	=47	=47	=47	=47	=47	=47	=47	=47	=47	=47	=47	=47	=47
!	!	!	!	!	!	!	!	!	!	!	!	!	!	!LO:HP:a	!	!	!	!	!	!LO:HP:a	!	!	!LO:HP:a	!	!	!	!	!LO:HP:a	!	!	!	!	!	!	!	!	!	!
2AA/	6 5	.	2AA/	.	8F#/L	.	8f#/L	.	8f#/L	.	1ryy	2AA/	-le-	>	(2c#\	-le-	.	2e/	-le-	>	2.f#/	-le-	>	1ryy	1ryy	1ryy	2e\	>	1f#	.	2ee\	.	2cc#\	.	2ff#\	.	(1ff#)	.
.	.	.	.	.	8c#/	.	8cc#/	>	8cc#/	.	.	.	.	.	.	.	.	.	.	.	.	.	.	.	.	.	.	.	.	.	.	.	.	.	.	.	.	.
.	.	.	.	.	8A/	.	8a/	.	8a/	.	.	.	.	.	.	.	.	.	.	.	.	.	.	.	.	.	.	.	.	.	.	.	.	.	.	.	.	.
.	.	.	.	.	8F#/J	.	8f#/J	.	8f#/J	.	.	.	.	.	.	.	.	.	.	.	.	.	.	.	.	.	.	.	.	.	.	.	.	.	.	.	.	.
2BB/	7	.	2BB/	.	8D#/L	.	8d#/L	.	8d#/L	.	.	2BB/	-i-	]	4B\)	.	.	2d#/	-i-	]	.	.	.	.	.	.	2B/	]	.	.	2ff#\	.	2dd#\	.	4b\	.	.	.
.	.	.	.	.	8A/	.	8a/	.	8a/	.	.	.	.	.	.	.	.	.	.	.	.	.	.	.	.	.	.	.	.	.	.	.	.	.	.	.	.	.
.	.	.	.	.	8F#/	.	8f#/	.	8f#/	.	.	.	.	.	4A\	-i-	.	.	.	.	4f#/	-i-	.	.	.	.	.	.	.	.	.	.	.	.	4a\	.	.	.
.	.	.	.	.	8D#/J	.	8d#/J	]]	8d#/J	.	.	.	.	.	.	.	.	.	.	.	.	.	]	.	.	.	.	.	.	.	.	.	.	.	.	.	.	.
!	!	!	!	!	!	!	!	!	!	!	!	!	!	!	!	!	!	!	!	!	!	!	!	!	!	!	!	!	!	!	!	!	!LO:LB:g=original	!	!LO:LB:g=original	!	!	!
=48	=48	=48	=48	=48	=48	=48	=48	=48	=48	=48	=48	=48	=48	=48	=48	=48	=48	=48	=48	=48	=48	=48	=48	=48	=48	=48	=48	=48	=48	=48	=48	=48	=48	=48	=48	=48	=48	=48
2C#/	n	.	2C#/	.	8E/	.	8e/	.	8e/	.	1ryy	4C#/	-son	.	4G#/	-son	.	4e/	-son.	.	4e/	-son	.	1ryy	1ryy	1ryy	4E/	.	4e\	.	4ee\	.	4ee\	.	4g#/	.	4ee\)	.
.	.	.	.	.	8C#/L	.	8c#/L	.	8c#/L	.	.	.	.	.	.	.	.	.	.	.	.	.	.	.	.	.	.	.	.	.	.	.	.	.	.	.	.	.
.	.	.	.	.	8E/	.	8e/	.	8e/	.	.	4r	.	.	4r	.	.	4r	.	.	4r	.	.	.	.	.	4r	.	4r	.	4r	.	4r	.	4r	.	4r	.
.	.	.	.	.	8G#/J	.	8g#/J	.	8g#/J	.	.	.	.	.	.	.	.	.	.	.	.	.	.	.	.	.	.	.	.	.	.	.	.	.	.	.	.	.
!	!	!	!	!	!	!LO:DY:t=ff	!	!	!	!	!	!	!	!	!	!	!	!	!	!	!	!	!	!	!	!	!	!	!	!	!	!	!	!	!	!	!	!
2r	.	.	2r	.	8c#/L	ff	8cc#/L	ff	8cc#/L	ff	.	2r	.	.	2r	.	.	2r	.	.	2r	.	.	.	.	.	2r	.	2r	.	2r	.	8r	ff	8r	ff	2r	.
.	.	.	.	.	8C#/	.	8c#/	.	8c#/	.	.	.	.	.	.	.	.	.	.	.	.	.	.	.	.	.	.	.	.	.	.	.	8c#/L	.	8cc#\L	.	.	.
.	.	.	.	.	8E/	.	8e/	.	8e/	.	.	.	.	.	.	.	.	.	.	.	.	.	.	.	.	.	.	.	.	.	.	.	8e/	.	8ee\	.	.	.
.	.	.	.	.	8A/J	.	8a/J	.	8a/J	.	.	.	.	.	.	.	.	.	.	.	.	.	.	.	.	.	.	.	.	.	.	.	8a/J	.	8aa\J	.	.	.
!	!	!	!	!	!	!	!	!	!	!	!	!	!	!	!	!	!	!LO:LB:g=original	!	!	!	!	!	!	!	!	!LO:LB:g=original	!	!LO:LB:g=original	!	!LO:LB:g=original	!	!	!	!	!	!	!
=49	=49	=49	=49	=49	=49	=49	=49	=49	=49	=49	=49	=49	=49	=49	=49	=49	=49	=49	=49	=49	=49	=49	=49	=49	=49	=49	=49	=49	=49	=49	=49	=49	=49	=49	=49	=49	=49	=49
*	*	*	*	*	*	*	*	*	*	*	*	*	*	*	*	*	*	*	*	*	*	*	*	*	*	*	*	*	*	*	*	*^	*	*	*	*	*	*
!	!	!	!	!	!	!	!	!	!	!	!	!	!	!	!	!	!	!	!	!	!	!	!LO:DY:rj	!	!	!	!LO:TX:a:t=1.	!	!	!	!	!	!LO:HP:a	!	!	!	!	!	!
2AA/	3_	.	2AA/	ff	8c#/L	.	8cc#/L	.	8cc#/L	.	1ryy	(2AA/	Ky-	.	4r	.	.	(2e/	Ky-	.	2.cc#\	Ky-	ff	1ryy	1ryy	1ryy	1r	.	2e\	.	1a	f	<	2.cc#\	.	2.ccc#\	.	(2.ccc#\	<
.	.	.	.	.	8C#/	.	8c#/	.	8c#/	.	.	.	.	.	.	.	.	.	.	.	.	.	.	.	.	.	.	.	.	.	.	.	.	.	.	.	.	.	.
!	!	!	!	!	!	!	!	!	!	!	!	!	!	!	!	!	!	!	!	!	!	!	!LO:HP:a	!	!	!	!	!	!	!	!	!	!	!	!	!	!	!	!
.	.	.	.	.	8E/	.	8e/	.	8e/	.	.	.	.	.	2A\	Ky-	.	.	.	.	.	.	<	.	.	.	.	.	.	.	.	.	.	.	.	.	.	.	.
.	.	.	.	.	8A/J	.	8a/J	.	8a/J	.	.	.	.	.	.	.	.	.	.	.	.	.	.	.	.	.	.	.	.	.	.	.	.	.	.	.	.	.	.
4F#\	.	.	4F#\	.	4c#/	.	8cc#/L	.	8cc#/L	.	.	4F#\)	.	.	.	.	.	4f#/)	.	.	.	.	.	.	.	.	.	.	[2f#\	.	.	.	.	.	.	.	.	.	.
.	.	.	.	.	.	.	8c#/	.	8c#/	.	.	.	.	.	.	.	.	.	.	.	.	.	.	.	.	.	.	.	.	.	.	.	.	.	.	.	.	.	.
4E\	n6	.	4E\	.	4cn/	.	8ccn/	.	8ccn/	.	.	4E\	-ri-	.	4A\	-ri-	.	4f#/	-ri-	.	4ccn\	-ri-	.	.	.	.	.	.	.	.	.	.	.	4ccX\	.	4cccn\	.	4cccn\	.
.	.	.	.	.	.	.	8cn/J	.	8cn/J	.	.	.	.	.	.	.	.	.	.	.	.	.	.	.	.	.	.	.	.	.	.	.	[	.	.	.	.	.	[
*	*	*	*	*	*	*	*	*	*	*	*	*	*	*	*	*	*	*	*	*	*	*	*	*	*	*	*	*	*	*	*	*v	*v	*	*	*	*	*	*
!	!	!	!	!	!	!	!LO:LB:g=original	!	!	!	!	!	!	!	!	!	!	!	!	!	!	!	!	!	!	!	!	!	!	!	!	!	!	!	!	!	!	!
=50	=50	=50	=50	=50	=50	=50	=50	=50	=50	=50	=50	=50	=50	=50	=50	=50	=50	=50	=50	=50	=50	=50	=50	=50	=50	=50	=50	=50	=50	=50	=50	=50	=50	=50	=50	=50	=50	=50
2D#\	6 5	.	2D#\	.	8B/L	.	8b/L	.	8b/L	.	1ryy	2D#\	-e	.	2A\	-e	.	2f#/	-e	.	2b\	-e,	[	1ryy	1ryy	1ryy	2B\	.	2f#\]	.	2a\	.	2b\	.	2bb\	.	2bb\	.
.	.	.	.	.	8f#/	.	8ff#/	.	8ff#/	.	.	.	.	.	.	.	.	.	.	.	.	.	.	.	.	.	.	.	.	.	.	.	.	.	.	.	.	.
.	.	.	.	.	8d#/	.	8dd#/	.	8dd#/	.	.	.	.	.	.	.	.	.	.	.	.	.	.	.	.	.	.	.	.	.	.	.	.	.	.	.	.	.
.	.	.	.	.	8A/J	.	8a/J	.	8a/J	.	.	.	.	.	.	.	.	.	.	.	.	.	.	.	.	.	.	.	.	.	.	.	.	.	.	.	.	.
2E\	.	.	2E\	.	8G#/L	.	8g#/L	.	8g#/L	.	.	2E\	e-	.	(4G#\	e-	.	2e/	e-	.	(4ee\	e-	.	.	.	.	2e\	.	2g#\	.	2g#\	.	4ee\	.	2b\	.	4eee\	.
.	.	.	.	.	8e/	.	8ee/	.	8ee/	.	.	.	.	.	.	.	.	.	.	.	.	.	.	.	.	.	.	.	.	.	.	.	.	.	.	.	.	.
.	.	.	.	.	8B/	.	8b/	.	8b/	.	.	.	.	.	4B\)	.	.	.	.	.	4g#\)	.	.	.	.	.	.	.	.	.	.	.	4g#\	.	.	.	4gg#\)	.
!	!	!	!	!	!	!	!	!LO:HP:t=de cres&colon;	!	!LO:HP:t=d e cres	!	!	!	!	!	!	!	!	!	!	!	!	!	!	!	!	!	!	!	!	!	!	!	!	!	!	!	!
.	.	.	.	.	8G#/J	.	8g#/J	>	8g#/J	>	.	.	.	.	.	.	.	.	.	.	.	.	.	.	.	.	.	.	.	.	.	.	.	.	.	.	.	.
!	!	!	!	!	!LO:LB:g=original	!	!	!	!	!	!	!	!	!	!	!	!	!	!	!	!	!	!	!	!	!	!	!	!	!	!	!	!	!	!	!	!	!
=51	=51	=51	=51	=51	=51	=51	=51	=51	=51	=51	=51	=51	=51	=51	=51	=51	=51	=51	=51	=51	=51	=51	=51	=51	=51	=51	=51	=51	=51	=51	=51	=51	=51	=51	=51	=51	=51	=51
!	!	!	!	!	!	!	!	!	!	!	!	!	!	!LO:DY:rj:t=p	!	!	!	!	!	!LO:DY:rj	!	!	!	!	!	!	!	!	!	!	!	!	!	!	!	!	!	!
!	!	!	!	!	!	!	!	!	!	!	!	!	!	!	!	!	!LO:DY:a	!	!	!LO:HP:a	!	!	!LO:DY:rj	!	!	!	!LO:TX:a:t=1	!	!	!	!	!	!	!	!	!	!	!LO:DY:t=p
1AA	6 5	.	1AA	.	8F#/L	.	8f#/L	.	8f#/L	.	1ryy	1AA	-le-	p	1c#	-le-	p	(>1e	-le-	p <	[>1f#	-le-	p	1ryy	1ryy	1ryy	1r	.	[1f#	p	1a	p	1cc#	.	1cc#	p	[1ff#	p
.	.	.	.	.	8c#/	.	8cc#/	.	8cc#/	.	.	.	.	.	.	.	.	.	.	.	.	.	.	.	.	.	.	.	.	.	.	.	.	.	.	.	.	.
.	.	.	.	.	8A/	.	8a/	.	8a/	.	.	.	.	.	.	.	.	.	.	.	.	.	.	.	.	.	.	.	.	.	.	.	.	.	.	.	.	.
.	.	.	.	.	8F#/J	.	8f#/J	.	8f#/J	.	.	.	.	.	.	.	.	.	.	.	.	.	.	.	.	.	.	.	.	.	.	.	.	.	.	.	.	.
!	!	!	!	!	!	!	!	!	!LO:LB:g=original	!	!	!	!	!	!	!	!	!	!	!	!	!	!	!	!	!	!	!	!	!	!	!	!	!	!	!	!	!
.	.	.	.	.	4C#/	.	8c#/L	.	8c#/L	.	.	.	.	.	.	.	.	.	.	.	.	.	.	.	.	.	.	.	.	.	.	.	.	.	.	.	.	.
.	.	.	.	.	.	.	8A/	.	8A/	.	.	.	.	.	.	.	.	.	.	.	.	.	.	.	.	.	.	.	.	.	.	.	.	.	.	.	.	.
.	.	.	.	.	[4F#/	p	8c#/	.	8c#/	.	.	.	.	.	.	.	.	.	.	.	.	.	.	.	.	.	.	.	.	.	.	.	.	.	.	.	.	.
.	.	.	.	.	.	.	(8e/J	.	(>8e/J	.	.	.	.	.	.	.	.	.	.	[	.	.	.	.	.	.	.	.	.	.	.	.	.	.	.	.	.	.
!	!	!	!	!	!	!	!	!	!	!	!	!	!	!	!LO:LB:g=original	!	!	!	!	!	!	!	!	!	!	!	!	!	!	!	!	!	!	!	!	!	!	!
=52	=52	=52	=52	=52	=52	=52	=52	=52	=52	=52	=52	=52	=52	=52	=52	=52	=52	=52	=52	=52	=52	=52	=52	=52	=52	=52	=52	=52	=52	=52	=52	=52	=52	=52	=52	=52	=52	=52
!	!	!	!	!	!	!	!	!	!	!	!	!	!	!LO:DY:rj	!	!	!	!	!	!LO:DY:rj:t=pp	!	!	!	!	!	!	!	!	!	!	!	!	!	!	!	!	!	!
!	!	!	!	!LO:DY:t=pp	!	!	!	!	!	!	!	!	!	!	!	!	!	!	!	!LO:HP:a	!	!	!LO:HP:a	!	!	!	!	!LO:DY:rj	!	!	!	!	!	!	!	!	!	!
1BB	7	.	1BB	pp	4F#/]	.	8d#/L)	pp	8d#/L)	pp	1ryy	2.BB/	.	pp	2.B\	-e-	.	2.d#/)	.	pp >	2.f#/]	.	>	1ryy	1ryy	1ryy	1BB	pp	1f#]	.	1F#	.	2.b\	.	[1b	.	1ff#]	.
.	.	.	.	.	.	.	8a/	.	8a/	.	.	.	.	.	.	.	.	.	.	.	.	.	.	.	.	.	.	.	.	.	.	.	.	.	.	.	.	.
.	.	.	.	.	2F#/	.	8f#/	.	8f#/	.	.	.	.	.	.	.	.	.	.	.	.	.	.	.	.	.	.	.	.	.	.	.	.	.	.	.	.	.
.	.	.	.	.	.	.	8d#/J	.	8d#/J	.	.	.	.	.	.	.	.	.	.	.	.	.	.	.	.	.	.	.	.	.	.	.	.	.	.	.	.	.
.	.	.	.	.	.	.	8B/L	.	8B/L	.	.	.	.	.	.	.	.	.	.	.	.	.	.	.	.	.	.	.	.	.	.	.	.	.	.	.	.	.
.	.	.	.	.	.	.	8c#/	.	8c#/	.	.	.	.	.	.	.	.	.	.	.	.	.	.	.	.	.	.	.	.	.	.	.	.	.	.	.	.	.
.	.	.	.	.	4F#/	.	8A/	.	8A/	.	.	4BB/	-i-	.	4A\	-i-	.	4B/	-i-	.	4f#/	-i-	.	.	.	.	.	.	.	.	.	.	4a\	.	.	.	.	.
.	.	.	.	.	.	.	8B/J	.	8B/J	.	.	.	.	.	.	.	.	.	.	]	.	.	]	.	.	.	.	.	.	.	.	.	.	.	.	.	.	.
!	!	!	!	!	!	!	!LO:LB:g=original	!	!	!	!	!LO:LB:g=original	!	!	!	!	!	!	!	!	!LO:LB:g=original	!	!	!	!	!	!	!	!	!	!	!	!	!	!	!	!	!
=53	=53	=53	=53	=53	=53	=53	=53	=53	=53	=53	=53	=53	=53	=53	=53	=53	=53	=53	=53	=53	=53	=53	=53	=53	=53	=53	=53	=53	=53	=53	=53	=53	=53	=53	=53	=53	=53	=53
!LO:TX:a:t=tasto	!	!LO:DY:rj	!	!	!	!	!LO:TX:t=P:problem:skreślone takty [5]	!	!	!	!	!	!	!LO:DY:rj	!	!	!	!	!	!	!	!	!LO:DY:a	!	!	!	!	!	!	!	!	!	!	!	!	!	!	!
[1EE	#	pp	[1E	.	4G#/	.	4G#/	.	4G#/	.	1ryy	1EE	-son	pp	4G#/	-son	.	4B/	-son	.	1e	-son	pp	1ryy	1ryy	1ryy	[>1E	pp	[1e	pp	4E/	.	4g#/	.	4b\]	.	4ee\	.
.	.	.	.	.	.	.	.	.	.	p	.	.	.	.	.	.	.	.	.	.	.	.	.	.	.	.	.	.	.	.	.	.	.	.	.	.	.	.
!	!	!	!	!	!	!	!	!LO:HP:a	!	!LO:HP:a	!	!	!	!	!	!	!	!	!	!	!	!	!	!	!	!	!	!	!	!	!	!	!	!	!	!	!	!
.	.	.	.	.	4B^>/	<	2dn^/	<	(4g#^/	<	.	.	.	.	4r	.	.	4r	.	.	.	.	.	.	.	.	.	.	.	.	4r	.	4r	.	4r	.	4r	.
.	.	.	.	.	4A/	.	.	.	4a/	.	.	.	.	.	2r	.	.	2r	.	.	.	.	.	.	.	.	.	.	.	.	2r	.	2r	.	2r	.	2r	.
.	.	.	.	.	4G#/	.	[>4d/	[	4b/)	[[	.	.	.	.	.	.	.	.	.	.	.	.	.	.	.	.	.	.	.	.	.	.	.	.	.	.	.	.
!LO:LB:g=original	!	!	!	!	!	!	!	!	!	!	!	!	!	!	!	!	!	!	!	!	!	!	!	!	!	!	!	!	!	!	!	!	!	!	!	!	!	!
=54	=54	=54	=54	=54	=54	=54	=54	=54	=54	=54	=54	=54	=54	=54	=54	=54	=54	=54	=54	=54	=54	=54	=54	=54	=54	=54	=54	=54	=54	=54	=54	=54	=54	=54	=54	=54	=54	=54
!LO:TX:b:t=P:problem:brak zakończenia ligatury	!	!	!	!	!	!	!	!	!	!	!	!	!	!	!	!	!	!	!	!	!	!	!	!	!	!	!	!	!	!	!	!	!	!	!	!	!	!
!LO:TX:a:t=tar&colon;	!	!	!	!	!	!	!	!	!	!	!	!	!	!	!	!	!LO:DY:a	!	!	!	!LO:TX:a:t=1.	!	!	!	!	!	!	!	!	!	!LO:TX:a:t=1	!	!LO:TX:a:t=1.	!	!LO:TX:a:t=1.	!	!LO:TX:a:t=1.	!
1EE_>	.	.	1E_	.	4A/	[	(4d/]	.	4e/	.	1ryy	1r	.	.	4r	.	pp	4r	.	ppp	1r	.	.	1ryy	1ryy	1ryy	1E_>	.	1e_	.	1r	.	1r	.	1r	.	1r	.
.	.	.	.	.	2A/	rfz	8c#/L	.	2a/	sf	.	.	.	.	4E/	e-	.	4e/	e-	.	.	.	.	.	.	.	.	.	.	.	.	.	.	.	.	.	.	.
.	.	.	.	.	.	.	8B/J	.	.	.	.	.	.	.	.	.	.	.	.	.	.	.	.	.	.	.	.	.	.	.	.	.	.	.	.	.	.	.
.	.	.	.	.	.	.	4c#/	.	.	.	.	.	.	.	4E/	-le-	.	4e/	-le-	.	.	.	.	.	.	.	.	.	.	.	.	.	.	.	.	.	.	.
.	.	.	.	.	4A/	.	4cn/)	.	4A/	.	.	.	.	.	4E/	-i-	.	4e/	-i-	.	.	.	.	.	.	.	.	.	.	.	.	.	.	.	.	.	.	.
!	!	!	!	!	!	!	!	!	!	!	!	!	!	!	!	!	!	!	!	!	!	!	!	!	!	!	!	!	!	!	!	!	!	!	!	!	!LO:LB:g=original	!
=55	=55	=55	=55	=55	=55	=55	=55	=55	=55	=55	=55	=55	=55	=55	=55	=55	=55	=55	=55	=55	=55	=55	=55	=55	=55	=55	=55	=55	=55	=55	=55	=55	=55	=55	=55	=55	=55	=55
1EE_>	.	.	1E_	.	(2A/	sf	(>2cn/	sf	[>1e	sf	1ryy	4r	.	ppp	[>1E	-son	.	[>1e	-son	.	4r	.	pp	1ryy	1ryy	1ryy	1E]	.	1e_	.	4r	pp	4r	.	[1ee	pp	[1eee	pp
.	.	.	.	.	.	.	.	.	.	p	.	4E 4EE/	e-	.	.	.	.	.	.	.	4e/	e-	.	.	.	.	.	.	.	.	(4a\	.	(4ccX\	pp	.	.	.	.
.	.	.	.	.	4G#/	p	4B/	pp	.	.	.	4E 4EE/	-le-	.	.	.	.	.	.	.	4e/	-le-	.	.	.	.	.	.	.	.	4g#\	.	4b\	.	.	.	.	.
.	.	.	.	.	4F##X/	.	4A#X/	.	.	.	.	4E 4EE/	-i-	.	.	.	.	.	.	.	4e/	-i-	.	.	.	.	.	.	.	.	4f##X/	.	4a#X\	.	.	.	.	.
!	!	!	!LO:LB:g=original	!	!	!	!	!	!	!	!	!	!	!	!	!	!	!	!	!	!	!	!	!	!	!	!	!	!	!	!	!	!	!	!	!	!	!
=56	=56	=56	=56	=56	=56	=56	=56	=56	=56	=56	=56	=56	=56	=56	=56	=56	=56	=56	=56	=56	=56	=56	=56	=56	=56	=56	=56	=56	=56	=56	=56	=56	=56	=56	=56	=56	=56	=56
!	!	!	!LO:TX:a:t=P:problem:brak zakończenia ligatury	!	!	!	!	!	!	!	!	!	!	!	!	!	!	!	!	!	!	!	!	!	!	!	!	!	!	!	!	!	!	!	!	!	!	!
4B 4G# 4EE/]	.	.	4E\]	.	4G#/)	pp	4B/)	.	4e/]	.	1ryy	2E 2EE/	-son.	.	4E/]	.	.	4e/]	.	.	2e/	-son	.	1ryy	1ryy	1ryy	4E/	.	4e\]	.	4g#\)	pp	4b\)	.	4ee\]	.	4eee\]	.
4r	.	.	4r	.	4r	.	4r	ppp	4r	.	.	.	.	.	4r	.	.	4r	.	.	.	.	.	.	.	.	4r	.	4r	.	4r	.	4r	.	4r	.	4r	.
4G# 4E 4EE/	.	.	4E\	.	4G# 4E/	.	4B/	.	4e/	ppp	.	2r	.	.	2r	.	.	2r	.	.	2r	.	.	.	.	.	4E/	.	4e\	.	4G#/	.	4g#/	pp	4g#/	.	4ee\	.
4r	.	.	4r	.	4r	.	4r	.	4r	.	.	.	.	.	.	.	.	.	.	.	.	.	.	.	.	.	4r	.	4r	.	4r	.	4r	.	4r	.	4r	.
=57	=57	=57	=57	=57	=57	=57	=57	=57	=57	=57	=57	=57	=57	=57	=57	=57	=57	=57	=57	=57	=57	=57	=57	=57	=57	=57	=57	=57	=57	=57	=57	=57	=57	=57	=57	=57	=57	=57
!	!	!LO:DY:rj	!	!	!	!	!	!	!	!	!	!	!	!	!	!	!	!	!	!	!	!	!	!	!	!	!	!	!	!	!	!	!	!	!	!	!	!
2E 2EE;/	.	pp	2E;\	.	2B 2E;/	.	2G#;/	.	2e;/	.	1ryy	1r;	.	.	1r;	.	.	1r;	.	.	1r;	.	.	1ryy	1ryy	1ryy	2E;/	.	2e;\	.	2G#;/	.	2g#;\	.	2g#;/	.	2ee;\	.
2r	.	.	2r	.	2r	.	2r	.	2r	.	.	.	.	.	.	.	.	.	.	.	.	.	.	.	.	.	2r	.	2r	.	2r	.	2r	.	2r	.	2r	.
==	==	==	==	==	==	==	==	==	==	==	==	==	==	==	==	==	==	==	==	==	==	==	==	==	==	==	==	==	==	==	==	==	==	==	==	==	==	==
*-	*-	*-	*-	*-	*-	*-	*-	*-	*-	*-	*-	*-	*-	*-	*-	*-	*-	*-	*-	*-	*-	*-	*-	*-	*-	*-	*-	*-	*-	*-	*-	*-	*-	*-	*-	*-	*-	*-
!!!system-decoration: [g1][g2]s9[g3][g4]s19
!!!RDF**kern: > = above
!!!RDF**kern: < = below
!!!RDF**dynam: p = "p:"
!!!RDF**dynam: pp = "pp:"
!!!RDF**dynam: ppp = "ppp:"
!!!RDF**dynam: f = "f:"
!!!RDF**dynam: ff = "ff:"
!!!RDF*dynam: sf = "sf:"
!!!RDF**dynam: rfz = "rf:"
!!!ENC: Zofia Niedbalska
!!!END: 2021-01-20
!!!ENC: Andrzej Kubiczek
!!!END: 2021-01-16
!!!RDF**kern: | = vertical stroke
